;FLAVOR:Marlin
;TIME:1770
;Filament used: 0.979761m
;Layer height: 0.2
;MINX:88.886
;MINY:96.044
;MINZ:0.2
;MAXX:146.113
;MAXY:141.927
;MAXZ:13.8
;TARGET_MACHINE.NAME:Creality Ender-3
;Generated with Cura_SteamEngine 5.10.2
M140 S50
M105
M190 S50
M104 S200
M105
M109 S200
; Ender 3 Custom Start G-code
G92 E0 ; Reset Extruder
G28 ; Home all axes
G1 Z2.0 F3000 ; Move Z Axis up little to prevent scratching of Heat Bed
G1 X0.1 Y20 Z0.3 F5000.0 ; Move to start position
G1 X0.1 Y200.0 Z0.3 F1500.0 E15 ; Draw the first line
G1 X0.4 Y200.0 Z0.3 F5000.0 ; Move to side a little
G1 X0.4 Y20 Z0.3 F1500.0 E30 ; Draw the second line
G92 E0 ; Reset Extruder
G1 Z2.0 F3000 ; Move Z Axis up little to prevent scratching of Heat Bed
G1 X5 Y20 Z0.3 F5000.0 ; Move over to prevent blob squish
M82 ;absolute extrusion mode
G92 E0
G92 E0
G1 F2700 E-5
;LAYER_COUNT:69
;LAYER:0
M107
G0 F6000 X92.421 Y98.98 Z0.2
;TYPE:SKIRT
G1 F2700 E0
G1 F1200 X93.163 Y98.352 E0.03233
G1 X93.958 Y97.791 E0.06469
G1 X94.769 Y97.318 E0.09592
G1 X95.683 Y96.889 E0.1295
G1 X96.531 Y96.578 E0.15954
G1 X97.54 Y96.307 E0.19429
G1 X98.504 Y96.14 E0.22683
G1 X99.572 Y96.056 E0.26246
G1 X100.044 Y96.045 E0.27817
G1 X101.028 Y96.044 E0.3109
G1 X101.92 Y96.06 E0.34057
G1 X102.885 Y96.121 E0.37273
G1 X106.018 Y96.568 E0.47799
G1 X108.527 Y96.858 E0.56199
G1 X111.05 Y97.077 E0.64622
G1 X113.537 Y97.222 E0.72908
G1 X116.062 Y97.298 E0.8131
G1 X118.587 Y97.304 E0.89708
G1 X121.081 Y97.237 E0.98006
G1 X123.613 Y97.1 E1.0644
G1 X126.112 Y96.891 E1.14781
G1 X128.64 Y96.608 E1.23242
G1 X131.662 Y96.182 E1.33392
G1 X132.577 Y96.079 E1.36455
G1 X133.289 Y96.052 E1.38825
G1 X134.395 Y96.044 E1.42503
G1 X135.27 Y96.055 E1.45414
G1 X136.243 Y96.111 E1.48655
G1 X137.137 Y96.241 E1.5166
G1 X138.152 Y96.482 E1.5513
G1 X139.075 Y96.792 E1.58368
G1 X139.967 Y97.184 E1.61609
G1 X140.792 Y97.634 E1.64735
G1 X141.63 Y98.194 E1.68087
G1 X142.388 Y98.805 E1.71325
G1 X143.04 Y99.43 E1.74329
G1 X143.727 Y100.217 E1.77804
G1 X144.279 Y100.977 E1.80928
G1 X144.797 Y101.843 E1.84284
G1 X145.22 Y102.721 E1.87525
G1 X145.563 Y103.632 E1.90763
G1 X145.824 Y104.57 E1.94001
G1 X146.002 Y105.527 E1.97239
G1 X146.094 Y106.48 E2.00423
G1 X146.113 Y107.141 E2.02623
G1 X146.112 Y109.725 E2.11217
G1 X146.102 Y110.342 E2.1327
G1 X146.112 Y113.919 E2.25167
G1 X146.113 Y126.573 E2.67254
G1 X146.102 Y127.4 E2.70005
G1 X146.11 Y130.383 E2.79927
G1 X146.103 Y131.077 E2.82235
G1 X146.064 Y131.862 E2.84849
G1 X145.924 Y132.893 E2.8831
G1 X145.708 Y133.842 E2.91547
G1 X145.409 Y134.768 E2.94783
G1 X145.058 Y135.601 E2.9779
G1 X144.568 Y136.525 E3.01268
G1 X144.036 Y137.34 E3.04506
G1 X143.456 Y138.078 E3.07627
G1 X142.763 Y138.814 E3.1099
G1 X142.036 Y139.46 E3.14224
G1 X141.253 Y140.04 E3.17465
G1 X140.423 Y140.548 E3.20702
G1 X139.584 Y140.966 E3.2382
G1 X138.643 Y141.335 E3.27182
G1 X137.777 Y141.59 E3.30184
G1 X137.221 Y141.713 E3.32078
G1 X136.263 Y141.859 E3.35301
G1 X135.439 Y141.916 E3.38048
G1 X134.99 Y141.927 E3.39542
G1 X133.701 Y141.925 E3.43829
G1 X133.015 Y141.914 E3.46111
G1 X132.396 Y141.884 E3.48173
G1 X131.699 Y141.81 E3.50504
G1 X129.075 Y141.43 E3.59322
G1 X126.554 Y141.136 E3.67764
G1 X124.062 Y140.917 E3.76084
G1 X121.557 Y140.768 E3.84431
G1 X119.024 Y140.69 E3.9286
G1 X116.532 Y140.681 E4.01148
G1 X113.966 Y140.747 E4.09685
G1 X111.508 Y140.88 E4.17873
G1 X108.974 Y141.087 E4.26329
G1 X106.464 Y141.365 E4.34728
G1 X103.334 Y141.804 E4.45241
G1 X102.095 Y141.902 E4.49374
G1 X100.898 Y141.927 E4.53357
G1 X99.735 Y141.917 E4.57225
G1 X98.762 Y141.861 E4.60466
G1 X97.868 Y141.731 E4.63471
G1 X96.852 Y141.49 E4.66944
G1 X95.929 Y141.18 E4.70183
G1 X95.037 Y140.788 E4.73423
G1 X94.184 Y140.32 E4.76659
G1 X93.374 Y139.778 E4.79901
G1 X92.616 Y139.167 E4.83139
G1 X91.964 Y138.542 E4.86143
G1 X91.277 Y137.755 E4.89618
G1 X90.725 Y136.995 E4.92742
G1 X90.207 Y136.129 E4.96098
G1 X89.785 Y135.253 E4.99332
G1 X89.441 Y134.341 E5.02574
G1 X89.18 Y133.403 E5.05812
G1 X89.002 Y132.445 E5.09053
G1 X88.91 Y131.493 E5.12234
G1 X88.89 Y130.791 E5.1457
G1 X88.896 Y130.08 E5.16935
G1 X88.887 Y126.396 E5.29188
G1 X88.889 Y113.544 E5.71934
G1 X88.899 Y112.871 E5.74173
G1 X88.886 Y107.513 E5.91993
G1 X88.898 Y106.758 E5.94505
G1 X88.967 Y105.787 E5.97743
G1 X89.121 Y104.825 E6.00983
G1 X89.36 Y103.881 E6.04222
G1 X89.682 Y102.961 E6.07464
G1 X90.084 Y102.075 E6.107
G1 X90.563 Y101.226 E6.13942
G1 X91.115 Y100.425 E6.17177
G1 X91.736 Y99.675 E6.20416
G1 X92.421 Y98.98 E6.23662
G0 F6000 X92.68 Y99.285
G1 F1200 X93.394 Y98.679 E6.26776
G1 X94.16 Y98.137 E6.29897
G1 X94.971 Y97.664 E6.3302
G1 X95.821 Y97.265 E6.36143
G1 X96.669 Y96.954 E6.39147
G1 X97.609 Y96.701 E6.42385
G1 X98.536 Y96.539 E6.45515
G1 X99.582 Y96.456 E6.49005
G1 X100.044 Y96.445 E6.50542
G1 X101.021 Y96.444 E6.53792
G1 X101.895 Y96.459 E6.56699
G1 X102.829 Y96.517 E6.59811
G1 X105.962 Y96.964 E6.70337
G1 X108.483 Y97.255 E6.78778
G1 X111.027 Y97.476 E6.87271
G1 X113.525 Y97.622 E6.95594
G1 X116.05 Y97.698 E7.03996
G1 X118.597 Y97.704 E7.12467
G1 X121.092 Y97.637 E7.20768
G1 X123.646 Y97.498 E7.29276
G1 X126.157 Y97.289 E7.37656
G1 X128.685 Y97.006 E7.46117
G1 X131.707 Y96.579 E7.56268
G1 X132.592 Y96.479 E7.5923
G1 X133.292 Y96.452 E7.6156
G1 X134.39 Y96.444 E7.65212
G1 X135.247 Y96.454 E7.68063
G1 X136.185 Y96.507 E7.71188
G1 X137.079 Y96.637 E7.74192
G1 X138.025 Y96.861 E7.77426
G1 X138.915 Y97.159 E7.80547
G1 X139.775 Y97.535 E7.83669
G1 X140.6 Y97.985 E7.86795
G1 X141.379 Y98.506 E7.89912
G1 X142.111 Y99.094 E7.93035
G1 X142.763 Y99.719 E7.96039
G1 X143.403 Y100.452 E7.99275
G1 X143.955 Y101.212 E8.02399
G1 X144.437 Y102.017 E8.0552
G1 X144.846 Y102.863 E8.08645
G1 X145.178 Y103.74 E8.11764
G1 X145.431 Y104.644 E8.14887
G1 X145.604 Y105.566 E8.18007
G1 X145.694 Y106.492 E8.21101
G1 X145.713 Y107.141 E8.23261
G1 X145.712 Y109.719 E8.31835
G1 X145.702 Y110.336 E8.33887
G1 X145.712 Y113.919 E8.45805
G1 X145.713 Y126.568 E8.87875
G1 X145.702 Y127.395 E8.90626
G1 X145.71 Y130.379 E9.00551
G1 X145.703 Y131.057 E9.02806
G1 X145.664 Y131.842 E9.0542
G1 X145.534 Y132.805 E9.08652
G1 X145.327 Y133.72 E9.11773
G1 X145.04 Y134.613 E9.14892
G1 X144.689 Y135.446 E9.17899
G1 X144.233 Y136.307 E9.21139
G1 X143.721 Y137.093 E9.24259
G1 X143.164 Y137.804 E9.27263
G1 X142.497 Y138.515 E9.30506
G1 X141.797 Y139.139 E9.33625
G1 X141.044 Y139.699 E9.36746
G1 X140.244 Y140.19 E9.39868
G1 X139.437 Y140.594 E9.4287
G1 X138.53 Y140.951 E9.46112
G1 X137.664 Y141.206 E9.49114
G1 X137.16 Y141.318 E9.50831
G1 X136.235 Y141.46 E9.53944
G1 X135.429 Y141.516 E9.56631
G1 X134.991 Y141.527 E9.58088
G1 X133.708 Y141.525 E9.62356
G1 X133.034 Y141.514 E9.64598
G1 X132.438 Y141.486 E9.66582
G1 X131.756 Y141.414 E9.68863
G1 X129.132 Y141.034 E9.77682
G1 X126.6 Y140.739 E9.8616
G1 X124.086 Y140.518 E9.94554
G1 X121.569 Y140.368 E10.0294
G1 X119.036 Y140.29 E10.11369
G1 X116.523 Y140.281 E10.19728
G1 X113.956 Y140.347 E10.28268
G1 X111.475 Y140.481 E10.36532
G1 X108.933 Y140.689 E10.45015
G1 X106.42 Y140.967 E10.53424
G1 X103.302 Y141.405 E10.63897
G1 X102.087 Y141.502 E10.67951
G1 X100.901 Y141.527 E10.71896
G1 X99.758 Y141.518 E10.75698
G1 X98.82 Y141.465 E10.78823
G1 X97.926 Y141.335 E10.81827
G1 X96.979 Y141.111 E10.85064
G1 X96.089 Y140.813 E10.88186
G1 X95.229 Y140.437 E10.91308
G1 X94.406 Y139.987 E10.94427
G1 X93.625 Y139.466 E10.9755
G1 X92.893 Y138.878 E11.00673
G1 X92.241 Y138.253 E11.03677
G1 X91.601 Y137.52 E11.06913
G1 X91.049 Y136.76 E11.10037
G1 X90.567 Y135.955 E11.13158
G1 X90.159 Y135.111 E11.16276
G1 X89.826 Y134.233 E11.19399
G1 X89.573 Y133.329 E11.22521
G1 X89.4 Y132.406 E11.25645
G1 X89.31 Y131.481 E11.28736
G1 X89.29 Y130.794 E11.31022
G1 X89.296 Y130.083 E11.33387
G1 X89.287 Y126.396 E11.4565
G1 X89.289 Y113.55 E11.88376
G1 X89.299 Y112.877 E11.90614
G1 X89.286 Y107.519 E12.08435
G1 X89.297 Y106.786 E12.10873
G1 X89.362 Y105.85 E12.13994
G1 X89.509 Y104.923 E12.17116
G1 X89.738 Y104.013 E12.20237
G1 X90.047 Y103.126 E12.23361
G1 X90.433 Y102.271 E12.26481
G1 X90.893 Y101.452 E12.29605
G1 X91.424 Y100.679 E12.32725
G1 X92.021 Y99.955 E12.35846
G1 X92.68 Y99.285 E12.38971
G0 F6000 X92.939 Y99.59
G1 F1200 X93.626 Y99.005 E12.41972
G1 X94.362 Y98.482 E12.44976
G1 X95.142 Y98.026 E12.47981
G1 X95.959 Y97.641 E12.50985
G1 X96.807 Y97.33 E12.53989
G1 X97.679 Y97.095 E12.56993
G1 X98.568 Y96.938 E12.59995
G1 X99.592 Y96.856 E12.63412
G1 X100.044 Y96.845 E12.64916
G1 X101.014 Y96.844 E12.68142
G1 X101.871 Y96.858 E12.70993
G1 X102.773 Y96.913 E12.73998
G1 X105.906 Y97.36 E12.84524
G1 X108.439 Y97.652 E12.93005
G1 X111.004 Y97.875 E13.01568
G1 X113.513 Y98.022 E13.09927
G1 X116.038 Y98.098 E13.18329
G1 X118.607 Y98.104 E13.26874
G1 X121.103 Y98.037 E13.35179
G1 X123.679 Y97.896 E13.43759
G1 X126.198 Y97.687 E13.52166
G1 X128.729 Y97.404 E13.60637
G1 X131.752 Y96.976 E13.70792
G1 X132.608 Y96.879 E13.73657
G1 X133.295 Y96.852 E13.75944
G1 X134.386 Y96.844 E13.79573
G1 X135.225 Y96.853 E13.82363
G1 X136.127 Y96.903 E13.85368
G1 X137.021 Y97.033 E13.88373
G1 X137.899 Y97.241 E13.91374
G1 X138.756 Y97.526 E13.94378
G1 X139.584 Y97.886 E13.97381
G1 X140.378 Y98.318 E14.00387
G1 X141.129 Y98.818 E14.03388
G1 X141.834 Y99.383 E14.06393
G1 X142.486 Y100.008 E14.09397
G1 X143.08 Y100.688 E14.124
G1 X143.612 Y101.418 E14.15404
G1 X144.077 Y102.192 E14.18407
G1 X144.472 Y103.005 E14.21414
G1 X144.793 Y103.849 E14.24417
G1 X145.038 Y104.718 E14.2742
G1 X145.206 Y105.605 E14.30423
G1 X145.294 Y106.504 E14.33427
G1 X145.313 Y107.141 E14.35547
G1 X145.312 Y109.713 E14.44101
G1 X145.302 Y110.33 E14.46154
G1 X145.312 Y113.919 E14.58091
G1 X145.313 Y126.563 E15.00145
G1 X145.302 Y127.39 E15.02896
G1 X145.31 Y130.375 E15.12824
G1 X145.303 Y131.037 E15.15026
G1 X145.264 Y131.822 E15.1764
G1 X145.144 Y132.717 E15.20643
G1 X144.946 Y133.598 E15.23647
G1 X144.671 Y134.458 E15.2665
G1 X144.32 Y135.291 E15.29656
G1 X143.897 Y136.089 E15.3266
G1 X143.406 Y136.846 E15.35661
G1 X142.849 Y137.557 E15.38665
G1 X142.231 Y138.217 E15.41672
G1 X141.558 Y138.818 E15.44674
G1 X140.834 Y139.358 E15.47678
G1 X140.065 Y139.832 E15.50682
G1 X139.258 Y140.236 E15.53684
G1 X138.417 Y140.567 E15.5669
G1 X137.551 Y140.822 E15.59692
G1 X137.099 Y140.923 E15.61233
G1 X136.207 Y141.061 E15.64235
G1 X135.419 Y141.116 E15.66862
G1 X134.992 Y141.127 E15.68283
G1 X133.715 Y141.125 E15.7253
G1 X133.052 Y141.114 E15.74736
G1 X132.48 Y141.088 E15.7664
G1 X131.813 Y141.018 E15.78871
G1 X129.189 Y140.638 E15.87689
G1 X126.646 Y140.342 E15.96204
G1 X124.11 Y140.119 E16.04672
G1 X121.581 Y139.968 E16.13098
G1 X119.048 Y139.89 E16.21527
G1 X116.514 Y139.881 E16.29955
G1 X113.946 Y139.947 E16.38499
G1 X111.442 Y140.082 E16.4684
G1 X108.892 Y140.291 E16.55349
G1 X106.376 Y140.569 E16.63769
G1 X103.27 Y141.006 E16.74201
G1 X102.078 Y141.102 E16.78178
G1 X100.904 Y141.127 E16.82084
G1 X99.78 Y141.119 E16.85823
G1 X98.878 Y141.069 E16.88827
G1 X97.984 Y140.939 E16.91832
G1 X97.105 Y140.731 E16.94836
G1 X96.248 Y140.446 E16.9784
G1 X95.42 Y140.086 E17.00843
G1 X94.627 Y139.654 E17.03847
G1 X93.875 Y139.154 E17.0685
G1 X93.17 Y138.589 E17.09855
G1 X92.518 Y137.964 E17.12859
G1 X91.924 Y137.284 E17.15862
G1 X91.392 Y136.554 E17.18866
G1 X90.927 Y135.78 E17.2187
G1 X90.533 Y134.968 E17.24872
G1 X90.211 Y134.124 E17.27876
G1 X89.966 Y133.255 E17.30879
G1 X89.798 Y132.367 E17.33885
G1 X89.71 Y131.469 E17.36886
G1 X89.69 Y130.797 E17.39122
G1 X89.696 Y130.086 E17.41487
G1 X89.687 Y126.396 E17.5376
G1 X89.689 Y113.556 E17.96466
G1 X89.699 Y112.883 E17.98705
G1 X89.686 Y107.525 E18.16525
G1 X89.696 Y106.813 E18.18894
G1 X89.757 Y105.912 E18.21897
G1 X89.897 Y105.02 E18.24901
G1 X90.116 Y104.144 E18.27904
G1 X90.412 Y103.29 E18.3091
G1 X90.782 Y102.466 E18.33914
G1 X91.223 Y101.678 E18.36918
G1 X91.733 Y100.933 E18.39921
G1 X92.306 Y100.235 E18.42924
G1 X92.939 Y99.59 E18.4593
G1 F2700 E13.4593
;MESH:i101-Set_to_MX_link.stl
G0 F6000 X100.732 Y107.562
G0 X100.742 Y108.65
G0 X101.178 Y129.35
G0 X101.37 Y129.604
;TYPE:WALL-INNER
G1 F2700 E18.4593
G1 F1095.9 X101.373 Y109.259 E19.20026
G1 F1106 X101.348 Y108.851 E19.21501
G1 F1113.7 X100.932 Y108.844 E19.22992
G1 F1106 X100.935 Y129.61 E19.97931
G1 F1095.9 X101.37 Y129.604 E19.99515
G0 F6000 X101.675 Y130.02
;TYPE:WALL-OUTER
G1 F1200 X101.765 Y129.865 E20.00112
G1 X101.792 Y129.601 E20.00994
G1 X101.792 Y109.236 E20.68729
G1 X101.755 Y108.728 E20.70423
G1 X101.647 Y108.443 E20.71436
G1 X100.517 Y108.427 E20.75195
G1 X100.516 Y130.029 E21.47044
G1 X101.675 Y130.02 E21.50899
G1 F2700 E16.50899
G0 F6000 X101.178 Y129.35
G0 X101.564 Y129.344
G0 X102.659 Y129.344
G0 X132.341 Y129.347
G0 X133.436 Y129.347
G0 X133.822 Y129.347
G0 X133.629 Y129.605
;TYPE:WALL-INNER
G1 F2700 E21.50899
G1 F1095.9 X134.061 Y129.607 E21.52472
G1 F1106 X134.065 Y108.843 E22.27404
G1 F1113.7 X133.648 Y108.852 E22.28898
G1 F1106 X133.623 Y109.259 E22.3037
G1 F1095.9 X133.629 Y129.605 E23.0447
G0 F6000 X133.349 Y130.024
;TYPE:WALL-OUTER
G1 F1200 X134.48 Y130.027 E23.08231
G1 X134.48 Y108.419 E23.801
G1 X133.347 Y108.444 E23.83869
G1 X133.242 Y108.727 E23.84873
G1 X133.204 Y109.236 E23.86571
G1 X133.204 Y129.591 E24.54272
G1 X133.242 Y129.889 E24.55271
G1 X133.349 Y130.024 E24.55844
G1 F2700 E19.55844
;MESH:NONMESH
G0 F300 X133.349 Y130.024 Z0.4
G0 F6000 X133.822 Y129.347
G0 X133.436 Y109.232
G0 X132.345 Y109.157
G0 X92.939 Y99.59
;TIME_ELAPSED:45.043767
;LAYER:1
M106 S85
;TYPE:SKIRT
G1 F2700 E24.55844
G1 F1200 X93.626 Y99.005 E24.58845
G1 X94.362 Y98.482 E24.61848
G1 X95.142 Y98.026 E24.64853
G1 X95.959 Y97.641 E24.67857
G1 X96.807 Y97.33 E24.70861
G1 X97.679 Y97.095 E24.73865
G1 X98.568 Y96.938 E24.76868
G1 X99.592 Y96.856 E24.80284
G1 X100.044 Y96.845 E24.81788
G1 X101.014 Y96.844 E24.85014
G1 X101.871 Y96.858 E24.87865
G1 X102.773 Y96.913 E24.90871
G1 X105.906 Y97.36 E25.01397
G1 X108.439 Y97.652 E25.09877
G1 X111.004 Y97.875 E25.18441
G1 X113.513 Y98.022 E25.268
G1 X116.038 Y98.098 E25.35202
G1 X118.607 Y98.104 E25.43747
G1 X121.103 Y98.037 E25.52051
G1 X123.679 Y97.896 E25.60632
G1 X126.198 Y97.687 E25.69039
G1 X128.729 Y97.404 E25.7751
G1 X131.752 Y96.976 E25.87664
G1 X132.608 Y96.879 E25.9053
G1 X133.295 Y96.852 E25.92816
G1 X134.386 Y96.844 E25.96445
G1 X135.225 Y96.853 E25.99236
G1 X136.127 Y96.903 E26.02241
G1 X137.021 Y97.033 E26.05245
G1 X137.899 Y97.241 E26.08246
G1 X138.756 Y97.526 E26.1125
G1 X139.584 Y97.886 E26.14253
G1 X140.378 Y98.318 E26.1726
G1 X141.129 Y98.818 E26.2026
G1 X141.834 Y99.383 E26.23265
G1 X142.486 Y100.008 E26.26269
G1 X143.08 Y100.688 E26.29272
G1 X143.612 Y101.418 E26.32277
G1 X144.077 Y102.192 E26.3528
G1 X144.472 Y103.005 E26.38286
G1 X144.793 Y103.849 E26.4129
G1 X145.038 Y104.718 E26.44293
G1 X145.206 Y105.605 E26.47295
G1 X145.294 Y106.504 E26.503
G1 X145.313 Y107.141 E26.52419
G1 X145.312 Y109.713 E26.60974
G1 X145.302 Y110.33 E26.63026
G1 X145.312 Y113.919 E26.74963
G1 X145.313 Y126.563 E27.17017
G1 X145.302 Y127.39 E27.19768
G1 X145.31 Y130.375 E27.29696
G1 X145.303 Y131.037 E27.31898
G1 X145.264 Y131.822 E27.34512
G1 X145.144 Y132.717 E27.37516
G1 X144.946 Y133.598 E27.40519
G1 X144.671 Y134.458 E27.43522
G1 X144.32 Y135.291 E27.46529
G1 X143.897 Y136.089 E27.49533
G1 X143.406 Y136.846 E27.52534
G1 X142.849 Y137.557 E27.55538
G1 X142.231 Y138.217 E27.58545
G1 X141.558 Y138.818 E27.61546
G1 X140.834 Y139.358 E27.6455
G1 X140.065 Y139.832 E27.67555
G1 X139.258 Y140.236 E27.70556
G1 X138.417 Y140.567 E27.73562
G1 X137.551 Y140.822 E27.76565
G1 X137.099 Y140.923 E27.78105
G1 X136.207 Y141.061 E27.81108
G1 X135.419 Y141.116 E27.83735
G1 X134.992 Y141.127 E27.85155
G1 X133.715 Y141.125 E27.89403
G1 X133.052 Y141.114 E27.91608
G1 X132.48 Y141.088 E27.93513
G1 X131.813 Y141.018 E27.95743
G1 X129.189 Y140.638 E28.04562
G1 X126.646 Y140.342 E28.13077
G1 X124.11 Y140.119 E28.21544
G1 X121.581 Y139.968 E28.29971
G1 X119.048 Y139.89 E28.384
G1 X116.514 Y139.881 E28.46828
G1 X113.946 Y139.947 E28.55372
G1 X111.442 Y140.082 E28.63712
G1 X108.892 Y140.291 E28.72222
G1 X106.376 Y140.569 E28.80641
G1 X103.27 Y141.006 E28.91073
G1 X102.078 Y141.102 E28.95051
