;FLAVOR:Marlin
;TIME:7343
;Filament used: 3.86936m
;Layer height: 0.2
;MINX:40.213
;MINY:38.784
;MINZ:0.2
;MAXX:184.129
;MAXY:155.515
;MAXZ:8
;TARGET_MACHINE.NAME:Creality Ender-3
;Generated with Cura_SteamEngine 5.10.2
M140 S50
M105
M190 S50
M104 S200
M105
M109 S200
; Ender 3 Custom Start G-code
G92 E0 ; Reset Extruder
G28 ; Home all axes
G1 Z2.0 F3000 ; Move Z Axis up little to prevent scratching of Heat Bed
G1 X0.1 Y20 Z0.3 F5000.0 ; Move to start position
G1 X0.1 Y200.0 Z0.3 F1500.0 E15 ; Draw the first line
G1 X0.4 Y200.0 Z0.3 F5000.0 ; Move to side a little
G1 X0.4 Y20 Z0.3 F1500.0 E30 ; Draw the second line
G92 E0 ; Reset Extruder
G1 Z2.0 F3000 ; Move Z Axis up little to prevent scratching of Heat Bed
G1 X5 Y20 Z0.3 F5000.0 ; Move over to prevent blob squish
M82 ;absolute extrusion mode
G92 E0
G92 E0
G1 F2700 E-5
;LAYER_COUNT:40
;LAYER:0
M107
G0 F6000 X59.202 Y47.385 Z0.2
;TYPE:SKIRT
G1 F2700 E0
G1 F1200 X61.258 Y45.603 E0.09049
G1 X63.886 Y44.375 E0.18697
G1 X64.751 Y44.259 E0.216
G1 X65.228 Y43.969 E0.23457
G1 X67.06 Y43.084 E0.30224
G1 X68.992 Y42.353 E0.37094
G1 X71.166 Y41.702 E0.44642
G1 X74.367 Y40.974 E0.55561
G1 X77.476 Y40.429 E0.66059
G1 X82.175 Y39.821 E0.81818
G1 X86.758 Y39.379 E0.97132
G1 X91.485 Y39.051 E1.12892
G1 X96.089 Y38.868 E1.28217
G1 X100.735 Y38.784 E1.43672
G1 X105.251 Y38.798 E1.58692
G1 X116.137 Y39.041 E1.94908
G1 X117.975 Y39.531 E2.01235
G1 X118.687 Y39.888 E2.03884
G1 X120.93 Y39.048 E2.1185
G1 X132.48 Y38.798 E2.50275
G1 X137.107 Y38.784 E2.65664
G1 X141.669 Y38.867 E2.8084
G1 X146.284 Y39.07 E2.96205
G1 X151.02 Y39.401 E3.11995
G1 X155.641 Y39.854 E3.27438
G1 X160.395 Y40.487 E3.4339
G1 X163.635 Y41.058 E3.54332
G1 X166.416 Y41.705 E3.63829
G1 X168.49 Y42.33 E3.71033
G1 X170.432 Y43.065 E3.7794
G1 X172.79 Y44.248 E3.86714
G1 X173.64 Y44.359 E3.89565
G1 X176.247 Y45.575 E3.99133
G1 X178.313 Y47.363 E4.0822
G1 X179.48 Y49.042 E4.15021
G1 X180.354 Y51.318 E4.2313
G1 X180.338 Y52.877 E4.28316
G1 X180.435 Y53.107 E4.29146
G1 X181.165 Y55.222 E4.36588
G1 X181.558 Y56.605 E4.4137
G1 X182.363 Y60.381 E4.54211
G1 X182.811 Y63.507 E4.64714
G1 X183.027 Y65.586 E4.71666
G1 X183.179 Y67.583 E4.78328
G1 X183.314 Y69.607 E4.85074
G1 X183.404 Y71.585 E4.9166
G1 X183.534 Y75.417 E5.04413
G1 X183.909 Y89.653 E5.51778
G1 X183.994 Y95.096 E5.69884
G1 X184.129 Y98.259 E5.80414
G1 X183.693 Y100.192 E5.87004
G1 X182.974 Y101.808 E5.92887
G1 X180.766 Y104.501 E6.0447
G1 X180.77 Y105.71 E6.08491
G1 X180.019 Y108.124 E6.169
G1 X179.814 Y108.529 E6.18409
G1 X178.513 Y110.122 E6.2525
G1 X177.71 Y110.908 E6.28987
G1 X176.564 Y111.889 E6.34005
G1 X175.11 Y112.899 E6.39893
G1 X173.896 Y113.566 E6.445
G1 X171.916 Y114.359 E6.51594
G1 X170.483 Y114.741 E6.56527
G1 X169.825 Y114.851 E6.58746
G1 X171.562 Y116.258 E6.66181
G1 X172.5 Y117.282 E6.70799
G1 X173.39 Y118.568 E6.76001
G1 X175.466 Y122.4 E6.90496
G1 X175.769 Y122.92 E6.92498
G1 X176.1 Y123.406 E6.94454
G1 X176.436 Y123.83 E6.96253
G1 X176.828 Y124.258 E6.98184
G1 X177.378 Y124.799 E7.0075
G1 X178.258 Y125.543 E7.04582
G1 X179.259 Y126.494 E7.09175
G1 X180.507 Y128.535 E7.17132
G1 X180.887 Y129.42 E7.20335
G1 X181.424 Y131.495 E7.27464
G1 X181.503 Y132.209 E7.29853
G1 X181.37 Y134.708 E7.38177
G1 X181.176 Y135.63 E7.4131
G1 X181.205 Y135.884 E7.42161
G1 X181.239 Y137.189 E7.46502
G1 X180.651 Y139.549 E7.54592
G1 X179.394 Y141.464 E7.62211
G1 X177.86 Y142.901 E7.69202
G1 X177.638 Y143.139 E7.70284
G1 X177.371 Y143.467 E7.71691
G1 X177.11 Y143.835 E7.73192
G1 X176.776 Y144.383 E7.75326
G1 X174.799 Y147.819 E7.88511
G1 X173.646 Y149.326 E7.94822
G1 X172.143 Y150.73 E8.01663
G1 X170.567 Y151.778 E8.07958
G1 X169.075 Y152.524 E8.13506
G1 X166.908 Y153.027 E8.20905
G1 X165.308 Y153.191 E8.26254
G1 X126.814 Y153.931 E9.5431
G1 X124.837 Y153.491 E9.61046
G1 X122.852 Y152.499 E9.68427
G1 X121.374 Y150.988 E9.75457
G1 X121.207 Y150.725 E9.76493
G1 X120.689 Y150.45 E9.78444
G1 X119.019 Y148.831 E9.8618
G1 X118.287 Y147.914 E9.90082
G1 X116.203 Y144.744 E10.027
G1 X115.941 Y144.375 E10.04205
G1 X115.366 Y143.642 E10.07304
G1 X115.086 Y143.328 E10.08703
G1 X114.707 Y142.959 E10.10463
G1 X114.238 Y142.563 E10.12504
G1 X113.233 Y141.789 E10.16723
G1 X111.959 Y140.563 E10.22604
G1 X111.345 Y139.773 E10.25932
G1 X111.186 Y139.5 E10.26982
G1 X110.744 Y139.977 E10.29145
G1 X109.936 Y140.676 E10.32699
G1 X109.031 Y141.348 E10.36448
G1 X108.627 Y141.695 E10.38219
G1 X108.156 Y142.157 E10.40414
G1 X107.881 Y142.467 E10.41792
G1 X107.483 Y142.993 E10.43986
G1 X107.042 Y143.667 E10.46665
G1 X104.73 Y147.29 E10.6096
G1 X103.615 Y148.746 E10.67059
G1 X101.912 Y150.136 E10.7437
G1 X101.024 Y150.591 E10.77689
G1 X100.835 Y150.854 E10.78766
G1 X99.215 Y152.13 E10.85625
G1 X97.508 Y152.997 E10.91993
G1 X97.057 Y153.151 E10.93578
G1 X94.83 Y153.335 E11.0101
G1 X90.401 Y153.118 E11.15759
G1 X89.972 Y153.408 E11.17481
G1 X87.458 Y154.168 E11.26217
G1 X83.632 Y153.982 E11.38957
G1 X82.689 Y154.502 E11.42539
G1 X81.287 Y155.113 E11.47625
G1 X79.085 Y155.515 E11.5507
G1 X74.542 Y155.271 E11.70202
G1 X74.159 Y155.192 E11.71503
G1 X72.311 Y154.345 E11.78264
G1 X72.03 Y154.475 E11.79294
G1 X69.637 Y154.858 E11.87354
G1 X66.06 Y154.564 E11.99291
G1 X65.112 Y154.34 E12.02531
G1 X63.431 Y153.737 E12.08471
G1 X62.195 Y152.963 E12.13322
G1 X60.784 Y151.553 E12.19956
G1 X56.591 Y151.304 E12.33927
G1 X55.382 Y151.081 E12.38016
G1 X53.379 Y150.468 E12.44983
G1 X51.527 Y149.341 E12.52193
G1 X49.937 Y148.094 E12.58914
G1 X48.656 Y146.489 E12.65744
G1 X47.658 Y144.813 E12.72232
G1 X45.891 Y141.007 E12.86189
G1 X45.622 Y140.487 E12.88136
G1 X45.468 Y140.236 E12.89115
G1 X45.107 Y139.727 E12.91191
G1 X44.879 Y139.45 E12.92384
G1 X44.473 Y139.022 E12.94346
G1 X43.637 Y138.233 E12.9817
G1 X42.872 Y137.388 E13.01961
G1 X41.545 Y135.432 E13.09822
G1 X40.902 Y133.936 E13.15238
G1 X40.346 Y132.101 E13.21615
G1 X40.213 Y130.146 E13.28133
G1 X40.346 Y127.42 E13.3721
G1 X40.929 Y125.559 E13.43697
G1 X41.901 Y123.967 E13.49901
G1 X43.193 Y122.578 E13.5621
G1 X44.991 Y121.614 E13.62995
G1 X46.28 Y121.101 E13.6761
G1 X47.209 Y121.003 E13.70717
G1 X47.53 Y120.686 E13.72217
G1 X47.799 Y120.382 E13.73567
G1 X48.154 Y119.921 E13.75503
G1 X48.614 Y119.253 E13.782
G1 X50.942 Y115.712 E13.92295
G1 X51.474 Y115.072 E13.95063
G1 X52.782 Y113.877 E14.00956
G1 X54.494 Y112.749 E14.07775
G1 X56.308 Y112.12 E14.1416
G1 X57.815 Y111.788 E14.19293
G1 X59.437 Y111.758 E14.24689
G1 X60.896 Y111.829 E14.29547
G1 X59.793 Y110.875 E14.34397
G1 X58.363 Y109.496 E14.41005
G1 X57.131 Y107.22 E14.49613
G1 X57.015 Y106.895 E14.50761
G1 X56.785 Y104.922 E14.57367
G1 X56.781 Y104.529 E14.58674
G1 X54.587 Y101.847 E14.70199
G1 X53.608 Y99.608 E14.78327
G1 X53.442 Y97.404 E14.85678
G1 X53.546 Y95.082 E14.93409
G1 X53.632 Y89.561 E15.11774
G1 X54.007 Y75.359 E15.59027
G1 X54.147 Y71.473 E15.7196
G1 X54.246 Y69.506 E15.78511
G1 X54.363 Y67.459 E15.8533
G1 X54.533 Y65.369 E15.92304
G1 X54.769 Y63.197 E15.99571
G1 X55.179 Y60.371 E16.09069
G1 X55.928 Y56.829 E16.2111
G1 X56.512 Y54.795 E16.28148
G1 X57.03 Y53.305 E16.33395
G1 X57.226 Y52.841 E16.3507
G1 X57.221 Y51.725 E16.38782
G1 X57.766 Y49.558 E16.46214
G1 X57.937 Y49.134 E16.47735
G1 X59.202 Y47.385 E16.54914
G0 F6000 X59.498 Y47.657
G1 F1200 X61.479 Y45.941 E16.63631
G1 X64 Y44.763 E16.72886
G1 X64.889 Y44.644 E16.75869
G1 X65.436 Y44.311 E16.77999
G1 X67.202 Y43.458 E16.84522
G1 X69.134 Y42.727 E16.91393
G1 X71.255 Y42.092 E16.98757
G1 X74.436 Y41.368 E17.09607
G1 X77.527 Y40.826 E17.20045
G1 X82.213 Y40.219 E17.35761
G1 X86.786 Y39.778 E17.51041
G1 X91.501 Y39.451 E17.66761
G1 X96.096 Y39.268 E17.82056
G1 X100.734 Y39.184 E17.97485
G1 X105.242 Y39.198 E18.12478
G1 X116.079 Y39.44 E18.48531
G1 X117.835 Y39.908 E18.54576
G1 X118.735 Y40.36 E18.57926
G1 X118.956 Y40.215 E18.58805
G1 X121.007 Y39.447 E18.66089
G1 X132.481 Y39.198 E19.04261
G1 X137.1 Y39.184 E19.19623
G1 X141.651 Y39.267 E19.34763
G1 X146.256 Y39.469 E19.50094
G1 X150.981 Y39.799 E19.65847
G1 X155.588 Y40.25 E19.81244
G1 X160.326 Y40.881 E19.97141
G1 X163.544 Y41.448 E20.08009
G1 X166.325 Y42.095 E20.17506
G1 X168.374 Y42.713 E20.24624
G1 X170.29 Y43.439 E20.31439
G1 X172.673 Y44.636 E20.40309
G1 X173.527 Y44.748 E20.43173
G1 X176.029 Y45.915 E20.52356
G1 X178.014 Y47.633 E20.61087
G1 X179.124 Y49.23 E20.67556
G1 X179.953 Y51.389 E20.75248
G1 X179.937 Y52.956 E20.8046
G1 X180.066 Y53.262 E20.81565
G1 X180.78 Y55.331 E20.88844
G1 X181.173 Y56.714 E20.93626
G1 X181.967 Y60.438 E21.06291
G1 X182.413 Y63.548 E21.16741
G1 X182.628 Y65.616 E21.23656
G1 X182.78 Y67.61 E21.30307
G1 X182.914 Y69.625 E21.37024
G1 X183.004 Y71.599 E21.43596
G1 X183.134 Y75.428 E21.56339
G1 X183.509 Y89.659 E22.03688
G1 X183.594 Y95.113 E22.2183
G1 X183.727 Y98.225 E22.3219
G1 X183.312 Y100.063 E22.38457
G1 X182.63 Y101.597 E22.44041
G1 X180.366 Y104.359 E22.55919
G1 X180.37 Y105.651 E22.60216
G1 X179.662 Y107.943 E22.68195
G1 X179.476 Y108.31 E22.69563
G1 X178.233 Y109.836 E22.7611
G1 X177.43 Y110.622 E22.79847
G1 X176.335 Y111.561 E22.84645
G1 X174.917 Y112.548 E22.90391
G1 X173.703 Y113.215 E22.94998
G1 X171.813 Y113.972 E23.0177
G1 X170.38 Y114.354 E23.06702
G1 X168.406 Y114.678 E23.13356
G1 X169.588 Y115.171 E23.17615
G1 X171.31 Y116.569 E23.24992
G1 X172.171 Y117.51 E23.29235
G1 X173.038 Y118.759 E23.34292
G1 X175.114 Y122.591 E23.48787
G1 X175.431 Y123.135 E23.50881
G1 X175.775 Y123.64 E23.52914
G1 X176.131 Y124.089 E23.54819
G1 X176.547 Y124.543 E23.56867
G1 X177.101 Y125.088 E23.59452
G1 X177.982 Y125.833 E23.6329
G1 X178.946 Y126.749 E23.67713
G1 X180.166 Y128.744 E23.7549
G1 X180.5 Y129.521 E23.78303
G1 X181.026 Y131.539 E23.85239
G1 X181.105 Y132.253 E23.87629
G1 X180.979 Y134.626 E23.95532
G1 X180.771 Y135.614 E23.98891
G1 X180.805 Y135.895 E23.99832
G1 X180.838 Y137.146 E24.03994
G1 X180.279 Y139.388 E24.11679
G1 X179.087 Y141.204 E24.18904
G1 X177.567 Y142.628 E24.25832
G1 X177.335 Y142.877 E24.26964
G1 X177.054 Y143.223 E24.28446
G1 X176.774 Y143.617 E24.30054
G1 X176.434 Y144.175 E24.32227
G1 X174.452 Y147.619 E24.45444
G1 X173.329 Y149.082 E24.51578
G1 X171.921 Y150.397 E24.57986
G1 X170.388 Y151.42 E24.64115
G1 X168.938 Y152.145 E24.69507
G1 X166.818 Y152.637 E24.76746
G1 X165.3 Y152.791 E24.81821
G1 X126.852 Y153.53 E26.09723
G1 X124.974 Y153.112 E26.16122
G1 X123.091 Y152.171 E26.23123
G1 X121.689 Y150.737 E26.29794
G1 X121.489 Y150.422 E26.31035
G1 X120.929 Y150.125 E26.33143
G1 X119.332 Y148.581 E26.40531
G1 X118.6 Y147.664 E26.44434
G1 X116.537 Y144.524 E26.5693
G1 X116.256 Y144.128 E26.58545
G1 X115.674 Y143.386 E26.61681
G1 X115.385 Y143.062 E26.63125
G1 X114.969 Y142.656 E26.65059
G1 X114.496 Y142.257 E26.67117
G1 X113.51 Y141.5 E26.71251
G1 X112.274 Y140.316 E26.76944
G1 X111.691 Y139.572 E26.80088
G1 X111.26 Y138.831 E26.82939
G1 X110.482 Y139.674 E26.86755
G1 X109.674 Y140.373 E26.90308
G1 X108.777 Y141.039 E26.94024
G1 X108.354 Y141.402 E26.95878
G1 X107.865 Y141.881 E26.98155
G1 X107.575 Y142.209 E26.99611
G1 X107.152 Y142.768 E27.01942
G1 X106.707 Y143.448 E27.04645
G1 X104.393 Y147.075 E27.18955
G1 X103.328 Y148.464 E27.24776
G1 X101.691 Y149.8 E27.31804
G1 X100.755 Y150.279 E27.35301
G1 X100.544 Y150.574 E27.36507
G1 X98.999 Y151.791 E27.43049
G1 X97.327 Y152.64 E27.49286
G1 X96.979 Y152.756 E27.50506
G1 X94.85 Y152.935 E27.57612
G1 X90.289 Y152.711 E27.728
G1 X89.8 Y153.042 E27.74764
G1 X87.409 Y153.765 E27.83072
G1 X83.539 Y153.577 E27.95959
G1 X82.529 Y154.135 E27.99797
G1 X81.17 Y154.727 E28.04727
G1 X79.055 Y155.113 E28.11878
G1 X74.622 Y154.879 E28.26643
G1 X74.286 Y154.81 E28.27784
G1 X72.311 Y153.905 E28.35009
G1 X71.912 Y154.089 E28.36471
G1 X69.623 Y154.455 E28.44181
G1 X66.151 Y154.174 E28.55766
G1 X65.247 Y153.963 E28.58854
G1 X63.604 Y153.374 E28.64659
G1 X62.447 Y152.649 E28.692
G1 X61.086 Y151.291 E28.75595
G1 X60.983 Y151.164 E28.76139
G1 X56.663 Y150.91 E28.90532
G1 X55.499 Y150.698 E28.94467
G1 X53.544 Y150.1 E29.01267
G1 X51.735 Y148.999 E29.08311
G1 X50.224 Y147.811 E29.14703
G1 X48.969 Y146.239 E29.21394
G1 X48.021 Y144.645 E29.27562
G1 X46.254 Y140.839 E29.41519
G1 X45.97 Y140.289 E29.43578
G1 X45.801 Y140.013 E29.44654
G1 X45.426 Y139.485 E29.46808
G1 X45.176 Y139.181 E29.48117
G1 X44.755 Y138.738 E29.5015
G1 X43.912 Y137.942 E29.54006
G1 X43.169 Y137.12 E29.57691
G1 X41.898 Y135.24 E29.65239
G1 X41.285 Y133.82 E29.70383
G1 X40.742 Y132.028 E29.76611
G1 X40.613 Y130.166 E29.82819
G1 X40.744 Y127.489 E29.91733
G1 X41.296 Y125.725 E29.97881
G1 X42.222 Y124.209 E30.03789
G1 X43.439 Y122.9 E30.09734
G1 X45.18 Y121.967 E30.16304
G1 X46.376 Y121.493 E30.20583
G1 X47.39 Y121.386 E30.23974
G1 X47.811 Y120.971 E30.2594
G1 X48.112 Y120.631 E30.27451
G1 X48.471 Y120.165 E30.29407
G1 X48.943 Y119.48 E30.32174
G1 X51.25 Y115.968 E30.4615
G1 X51.782 Y115.328 E30.48918
G1 X53.051 Y114.173 E30.54625
G1 X54.67 Y113.111 E30.61065
G1 X56.394 Y112.511 E30.67136
G1 X57.864 Y112.187 E30.72143
G1 X59.417 Y112.158 E30.77309
G1 X62.259 Y112.297 E30.86773
G1 X61.086 Y111.464 E30.91558
G1 X60.071 Y110.587 E30.96019
G1 X58.684 Y109.249 E31.02429
G1 X57.508 Y107.085 E31.10621
G1 X57.406 Y106.8 E31.11628
G1 X57.185 Y104.918 E31.1793
G1 X57.179 Y104.384 E31.19706
G1 X54.93 Y101.634 E31.31522
G1 X54.002 Y99.512 E31.39225
G1 X53.842 Y97.422 E31.46197
G1 X53.946 Y95.1 E31.53928
G1 X54.032 Y89.572 E31.72316
G1 X54.407 Y75.373 E32.19559
G1 X54.546 Y71.493 E32.32472
G1 X54.645 Y69.529 E32.39013
G1 X54.762 Y67.491 E32.45802
G1 X54.931 Y65.412 E32.5274
G1 X55.165 Y63.254 E32.59959
G1 X55.575 Y60.428 E32.69457
G1 X56.313 Y56.939 E32.81318
G1 X56.89 Y54.926 E32.88283
G1 X57.408 Y53.436 E32.9353
G1 X57.626 Y52.92 E32.95393
G1 X57.621 Y51.773 E32.99208
G1 X58.137 Y49.708 E33.06287
G1 X58.291 Y49.327 E33.07654
G1 X59.498 Y47.657 E33.14508
G0 F6000 X59.794 Y47.929
G1 F1200 X61.7 Y46.279 E33.22892
G1 X64.114 Y45.151 E33.31755
G1 X65.027 Y45.029 E33.34818
G1 X65.644 Y44.653 E33.37222
G1 X67.344 Y43.832 E33.43501
G1 X69.276 Y43.101 E33.50371
G1 X71.344 Y42.482 E33.57551
G1 X74.505 Y41.762 E33.68334
G1 X77.578 Y41.223 E33.7871
G1 X82.251 Y40.617 E33.94383
G1 X86.814 Y40.177 E34.0963
G1 X91.517 Y39.851 E34.2531
G1 X96.103 Y39.668 E34.40575
G1 X100.733 Y39.584 E34.55977
G1 X105.233 Y39.598 E34.70944
G1 X116.021 Y39.839 E35.06834
G1 X117.695 Y40.285 E35.12596
G1 X118.775 Y40.828 E35.16617
G1 X119.096 Y40.59 E35.17946
G1 X121.084 Y39.846 E35.25006
G1 X132.482 Y39.598 E35.62925
G1 X137.093 Y39.584 E35.78261
G1 X141.634 Y39.667 E35.93367
G1 X146.228 Y39.868 E36.08661
G1 X150.942 Y40.197 E36.24378
G1 X155.535 Y40.646 E36.39727
G1 X160.257 Y41.275 E36.55572
G1 X163.453 Y41.838 E36.66365
G1 X166.234 Y42.485 E36.75862
G1 X168.258 Y43.096 E36.82894
G1 X170.148 Y43.813 E36.89617
G1 X172.459 Y44.974 E36.98219
G1 X172.536 Y45.022 E36.98521
G1 X173.414 Y45.137 E37.01466
G1 X175.811 Y46.255 E37.10263
G1 X177.715 Y47.903 E37.18638
G1 X178.768 Y49.418 E37.24775
G1 X179.552 Y51.46 E37.3205
G1 X179.536 Y53.035 E37.37289
G1 X179.697 Y53.417 E37.38667
G1 X180.395 Y55.44 E37.45785
G1 X180.788 Y56.823 E37.50567
G1 X181.571 Y60.495 E37.63055
G1 X182.015 Y63.589 E37.73451
G1 X182.229 Y65.646 E37.8033
G1 X182.381 Y67.636 E37.86968
G1 X182.514 Y69.643 E37.93658
G1 X182.604 Y71.613 E38.00217
G1 X182.734 Y75.439 E38.12949
G1 X183.109 Y89.665 E38.60282
G1 X183.194 Y95.13 E38.7846
G1 X183.325 Y98.191 E38.88651
G1 X182.931 Y99.934 E38.94594
G1 X182.286 Y101.386 E38.99879
G1 X179.965 Y104.217 E39.12055
G1 X179.97 Y105.592 E39.16628
G1 X179.28 Y107.825 E39.24401
G1 X179.138 Y108.092 E39.25407
G1 X177.953 Y109.55 E39.31656
G1 X177.15 Y110.336 E39.35393
G1 X176.075 Y111.257 E39.40102
G1 X174.724 Y112.197 E39.45576
G1 X173.51 Y112.864 E39.50183
G1 X171.71 Y113.585 E39.56632
G1 X170.277 Y113.967 E39.61565
G1 X168.376 Y114.279 E39.67972
G1 X166.496 Y114.506 E39.7427
G1 X167.716 Y114.824 E39.78464
G1 X169.381 Y115.518 E39.84463
G1 X171.016 Y116.84 E39.91457
G1 X171.843 Y117.739 E39.95519
G1 X172.686 Y118.95 E40.00427
G1 X174.762 Y122.782 E40.14922
G1 X175.093 Y123.35 E40.17109
G1 X175.45 Y123.874 E40.19218
G1 X175.826 Y124.348 E40.2123
