;FLAVOR:Marlin
;TIME:2657
;Filament used: 1.46701m
;Layer height: 0.2
;MINX:89.122
;MINY:94.741
;MINZ:0.2
;MAXX:145.908
;MAXY:139.935
;MAXZ:12.8
;TARGET_MACHINE.NAME:Creality Ender-3
;Generated with Cura_SteamEngine 5.10.2
M140 S50
M105
M190 S50
M104 S200
M105
M109 S200
; Ender 3 Custom Start G-code
G92 E0 ; Reset Extruder
G28 ; Home all axes
G1 Z2.0 F3000 ; Move Z Axis up little to prevent scratching of Heat Bed
G1 X0.1 Y20 Z0.3 F5000.0 ; Move to start position
G1 X0.1 Y200.0 Z0.3 F1500.0 E15 ; Draw the first line
G1 X0.4 Y200.0 Z0.3 F5000.0 ; Move to side a little
G1 X0.4 Y20 Z0.3 F1500.0 E30 ; Draw the second line
G92 E0 ; Reset Extruder
G1 Z2.0 F3000 ; Move Z Axis up little to prevent scratching of Heat Bed
G1 X5 Y20 Z0.3 F5000.0 ; Move over to prevent blob squish
M82 ;absolute extrusion mode
G92 E0
G92 E0
G1 F2700 E-5
;LAYER_COUNT:64
;LAYER:0
M107
G0 F6000 X94.558 Y98.955 Z0.2
;TYPE:SKIRT
G1 F2700 E0
G1 F1200 X95.453 Y98.211 E0.03871
G1 X97.06 Y97.368 E0.09907
G1 X98.18 Y97.043 E0.13785
G1 X98.497 Y96.847 E0.15025
G1 X101.003 Y96.123 E0.23701
G1 X102.64 Y96.226 E0.29156
G1 X104.046 Y95.922 E0.33941
G1 X106.436 Y95.431 E0.42056
G1 X108.767 Y94.864 E0.50035
G1 X112.123 Y94.926 E0.61199
G1 X113.524 Y95.112 E0.659
G1 X114.69 Y95.383 E0.69881
G1 X115.397 Y95.748 E0.72528
G1 X119.607 Y95.743 E0.8653
G1 X120.906 Y95.152 E0.91277
G1 X122.267 Y94.964 E0.95846
G1 X122.447 Y94.958 E0.96445
G1 X122.795 Y94.879 E0.97632
G1 X124.091 Y94.88 E1.01943
G1 X124.816 Y94.741 E1.04398
G1 X126.813 Y95.006 E1.11098
G1 X129.032 Y95.55 E1.18697
G1 X131.859 Y96.103 E1.28278
G1 X132.949 Y96.328 E1.3198
G1 X133.247 Y96.374 E1.32983
G1 X134.374 Y96.477 E1.36747
G1 X135.448 Y96.847 E1.40525
G1 X136.173 Y96.847 E1.42936
G1 X138.157 Y97.488 E1.49871
G1 X139.254 Y97.989 E1.53882
G1 X141.017 Y99.454 E1.61506
G1 X141.271 Y99.72 E1.6273
G1 X141.649 Y99.974 E1.64244
G1 X143.081 Y101.895 E1.72213
G1 X143.73 Y103.676 E1.78518
G1 X144.257 Y104.244 E1.81095
G1 X145.368 Y106.778 E1.90298
G1 X145.634 Y107.797 E1.93801
G1 X145.826 Y109.318 E1.989
G1 X145.759 Y111.816 E2.07211
G1 X145.547 Y112.904 E2.10898
G1 X144.935 Y114.648 E2.17045
G1 X144.175 Y116.124 E2.22567
G1 X142.632 Y117.839 E2.3024
G1 X142.476 Y117.964 E2.30905
G1 X142.477 Y119.397 E2.35671
G1 X143.228 Y119.973 E2.38819
G1 X144.834 Y122.232 E2.48037
G1 X145.725 Y124.77 E2.56984
G1 X145.908 Y127.325 E2.65504
G1 X145.662 Y128.97 E2.71036
G1 X145.374 Y130.365 E2.75773
G1 X144.556 Y132.317 E2.82813
G1 X143.964 Y133.132 E2.86163
G1 X143.949 Y133.245 E2.86542
G1 X143.553 Y134.871 E2.92109
G1 X142.469 Y136.958 E2.9993
G1 X140.891 Y138.4 E3.0704
G1 X138.986 Y139.533 E3.14412
G1 X136.785 Y139.935 E3.21854
G1 X131.98 Y139.921 E3.37835
G1 X129.996 Y139.5 E3.44581
G1 X127.859 Y138.365 E3.52629
G1 X126.808 Y137.217 E3.57806
G1 X125.36 Y136.889 E3.62744
G1 X123.94 Y136.622 E3.6755
G1 X122.44 Y136.161 E3.72769
G1 X121.27 Y135.616 E3.77062
G1 X120.655 Y135.11 E3.79711
G1 X120.356 Y134.946 E3.80845
G1 X119.368 Y134.799 E3.84167
G1 X118.407 Y134.715 E3.87376
G1 X117.562 Y134.689 E3.90188
G1 X116.383 Y134.737 E3.94112
G1 X115.951 Y134.769 E3.95553
G1 X115.673 Y134.802 E3.96484
G1 X114.702 Y134.949 E3.9975
G1 X114.215 Y135.283 E4.01715
G1 X113.879 Y135.394 E4.02891
G1 X112.142 Y136.384 E4.09541
G1 X111.627 Y136.591 E4.11387
G1 X110.113 Y136.806 E4.16473
G1 X109.376 Y136.94 E4.18965
G1 X107.892 Y137.279 E4.24028
G1 X106.784 Y138.317 E4.29078
G1 X104.937 Y139.414 E4.36223
G1 X103.983 Y139.675 E4.39512
G1 X102.406 Y139.895 E4.44808
G1 X98.018 Y139.934 E4.59403
G1 X96.069 Y139.479 E4.6606
G1 X93.989 Y138.405 E4.73846
G1 X92.585 Y136.886 E4.80726
G1 X91.422 Y134.947 E4.88246
G1 X91.085 Y133.22 E4.94098
G1 X90.64 Y132.552 E4.96768
G1 X89.94 Y131.303 E5.0153
G1 X89.542 Y129.913 E5.06339
G1 X89.122 Y127.695 E5.13847
G1 X89.206 Y125.244 E5.22004
G1 X89.815 Y123.232 E5.28996
G1 X90.313 Y122.047 E5.33271
G1 X91.611 Y120.196 E5.4079
G1 X92.523 Y119.417 E5.4478
G1 X92.524 Y117.876 E5.49905
G1 X91.867 Y117.282 E5.52851
G1 X90.698 Y115.967 E5.58703
G1 X89.78 Y113.937 E5.66113
G1 X89.333 Y112.337 E5.71638
G1 X89.191 Y111.262 E5.75245
G1 X89.23 Y108.661 E5.83897
G1 X89.475 Y107.173 E5.88913
G1 X90.095 Y105.616 E5.94487
G1 X90.845 Y104.169 E5.99907
G1 X91.256 Y103.72 E6.01932
G1 X91.447 Y102.934 E6.04622
G1 X92.503 Y100.948 E6.12103
G1 X94.558 Y98.955 E6.21625
G0 F6000 X94.814 Y99.263
G1 F1200 X95.679 Y98.544 E6.25366
G1 X97.21 Y97.741 E6.31116
G1 X98.343 Y97.412 E6.3504
G1 X98.66 Y97.216 E6.3628
G1 X101.047 Y96.526 E6.44544
G1 X102.671 Y96.628 E6.49956
G1 X104.126 Y96.314 E6.54907
G1 X106.531 Y95.82 E6.63073
G1 X108.813 Y95.265 E6.70884
G1 X112.116 Y95.326 E6.81872
G1 X113.433 Y95.502 E6.86291
G1 X114.555 Y95.763 E6.90122
G1 X115.301 Y96.148 E6.92915
G1 X119.694 Y96.143 E7.07526
G1 X121.019 Y95.54 E7.12368
G1 X122.28 Y95.364 E7.16602
G1 X122.497 Y95.357 E7.17325
G1 X122.84 Y95.279 E7.18494
G1 X124.129 Y95.28 E7.22782
G1 X124.827 Y95.146 E7.25146
G1 X126.718 Y95.395 E7.31489
G1 X128.947 Y95.941 E7.39122
G1 X131.778 Y96.495 E7.48717
G1 X132.868 Y96.72 E7.52419
G1 X133.202 Y96.771 E7.53542
G1 X134.289 Y96.871 E7.57173
G1 X135.382 Y97.247 E7.61017
G1 X136.11 Y97.247 E7.63439
G1 X137.991 Y97.852 E7.70011
G1 X139.038 Y98.33 E7.73839
G1 X140.761 Y99.762 E7.8129
G1 X141.01 Y100.027 E7.825
G1 X141.369 Y100.269 E7.8394
G1 X142.725 Y102.087 E7.91483
G1 X143.381 Y103.888 E7.97858
G1 X143.918 Y104.466 E8.00482
G1 X145.002 Y106.939 E8.09463
G1 X145.237 Y107.848 E8.12586
G1 X145.426 Y109.308 E8.17482
G1 X145.366 Y111.741 E8.25577
G1 X145.169 Y112.772 E8.29068
G1 X144.579 Y114.465 E8.35031
G1 X143.842 Y115.896 E8.40385
G1 X142.335 Y117.571 E8.47879
G1 X142.076 Y117.761 E8.48947
G1 X142.077 Y119.594 E8.55044
G1 X142.935 Y120.252 E8.5864
G1 X144.477 Y122.42 E8.67489
G1 X145.33 Y124.85 E8.76055
G1 X145.506 Y127.308 E8.84251
G1 X145.27 Y128.889 E8.89568
G1 X144.99 Y130.246 E8.94176
G1 X144.205 Y132.119 E9.00931
G1 X143.579 Y132.981 E9.04474
G1 X143.56 Y133.15 E9.0504
G1 X143.175 Y134.732 E9.10455
G1 X142.147 Y136.711 E9.17872
G1 X140.653 Y138.075 E9.24601
G1 X138.841 Y139.153 E9.31613
G1 X136.752 Y139.535 E9.38677
G1 X132.021 Y139.521 E9.54412
G1 X130.135 Y139.121 E9.60824
G1 X128.107 Y138.044 E9.68462
G1 X127.019 Y136.855 E9.73822
G1 X125.443 Y136.498 E9.79197
G1 X124.057 Y136.239 E9.83886
G1 X122.609 Y135.798 E9.88921
G1 X121.484 Y135.274 E9.93049
G1 X120.882 Y134.779 E9.95641
G1 X120.484 Y134.56 E9.97152
G1 X119.427 Y134.403 E10.00706
G1 X118.42 Y134.315 E10.04068
G1 X117.559 Y134.288 E10.06933
G1 X116.367 Y134.337 E10.10901
G1 X115.921 Y134.37 E10.12389
G1 X115.626 Y134.405 E10.13377
G1 X114.55 Y134.568 E10.16996
G1 X114.036 Y134.921 E10.1907
G1 X113.715 Y135.027 E10.20194
G1 X111.993 Y136.013 E10.26794
G1 X111.523 Y136.202 E10.28479
G1 X110.041 Y136.412 E10.33458
G1 X109.304 Y136.546 E10.35949
G1 X107.698 Y136.913 E10.41428
G1 X106.543 Y137.995 E10.46692
G1 X104.778 Y139.043 E10.53519
G1 X103.927 Y139.279 E10.56457
G1 X102.402 Y139.495 E10.6158
G1 X98.06 Y139.534 E10.76022
G1 X96.208 Y139.101 E10.82348
G1 X94.238 Y138.084 E10.89721
G1 X92.906 Y136.643 E10.96248
G1 X91.802 Y134.802 E11.03388
G1 X91.463 Y133.065 E11.09274
G1 X90.973 Y132.33 E11.12212
G1 X90.313 Y131.151 E11.16706
G1 X89.927 Y129.803 E11.2137
G1 X89.523 Y127.666 E11.28603
G1 X89.604 Y125.31 E11.36444
G1 X90.184 Y123.387 E11.43125
G1 X90.665 Y122.243 E11.47252
G1 X91.911 Y120.466 E11.54471
G1 X92.923 Y119.602 E11.58897
G1 X92.924 Y117.698 E11.65229
G1 X92.166 Y117.016 E11.68621
G1 X91.038 Y115.748 E11.74265
G1 X90.145 Y113.772 E11.81477
G1 X89.73 Y112.285 E11.86612
G1 X89.588 Y111.21 E11.90219
G1 X89.625 Y108.726 E11.98481
G1 X89.863 Y107.281 E12.03352
G1 X90.467 Y105.764 E12.08783
G1 X91.176 Y104.4 E12.13896
G1 X91.621 Y103.913 E12.1609
G1 X91.825 Y103.076 E12.18956
G1 X92.827 Y101.19 E12.26059
G1 X94.814 Y99.263 E12.35265
G0 F6000 X95.07 Y99.571
G1 F1200 X95.905 Y98.877 E12.38876
G1 X97.36 Y98.114 E12.44341
G1 X98.506 Y97.781 E12.4831
G1 X98.823 Y97.585 E12.49549
G1 X101.091 Y96.929 E12.57402
G1 X102.702 Y97.03 E12.62771
G1 X104.207 Y96.706 E12.67891
G1 X106.616 Y96.211 E12.76071
G1 X108.858 Y95.666 E12.83745
G1 X112.064 Y95.723 E12.9441
G1 X113.342 Y95.892 E12.98698
G1 X114.42 Y96.143 E13.02379
G1 X115.205 Y96.548 E13.05317
G1 X119.781 Y96.543 E13.20537
G1 X121.132 Y95.928 E13.25474
G1 X122.293 Y95.764 E13.29374
G1 X122.547 Y95.756 E13.30219
G1 X122.885 Y95.679 E13.31372
G1 X124.168 Y95.68 E13.35639
G1 X124.839 Y95.551 E13.37912
G1 X126.623 Y95.784 E13.43896
G1 X128.862 Y96.332 E13.51562
G1 X131.697 Y96.887 E13.61171
G1 X132.787 Y97.112 E13.64873
G1 X133.157 Y97.168 E13.66117
G1 X134.204 Y97.265 E13.69614
G1 X135.316 Y97.647 E13.73525
G1 X136.047 Y97.647 E13.75956
G1 X137.825 Y98.216 E13.82165
G1 X138.822 Y98.671 E13.85811
G1 X140.505 Y100.07 E13.9309
G1 X140.748 Y100.333 E13.94281
G1 X141.088 Y100.562 E13.95644
G1 X142.369 Y102.279 E14.02769
G1 X143.032 Y104.1 E14.09215
G1 X143.579 Y104.688 E14.11886
G1 X144.615 Y107.04 E14.20434
G1 X144.84 Y107.901 E14.23394
G1 X145.026 Y109.299 E14.28084
G1 X144.973 Y111.667 E14.35962
G1 X144.791 Y112.64 E14.39255
G1 X144.201 Y114.333 E14.45218
G1 X143.511 Y115.666 E14.5021
G1 X142.065 Y117.273 E14.574
G1 X141.676 Y117.558 E14.59004
G1 X141.677 Y119.792 E14.66434
G1 X142.644 Y120.533 E14.70486
G1 X144.12 Y122.608 E14.78956
G1 X144.935 Y124.93 E14.87141
G1 X145.104 Y127.291 E14.95014
G1 X144.878 Y128.808 E15.00115
G1 X144.606 Y130.127 E15.04594
G1 X143.853 Y131.925 E15.11078
G1 X143.191 Y132.835 E15.1482
G1 X143.171 Y133.055 E15.15555
G1 X142.797 Y134.593 E15.2082
G1 X141.826 Y136.462 E15.27825
G1 X140.412 Y137.752 E15.34191
G1 X138.696 Y138.773 E15.40832
G1 X136.719 Y139.135 E15.47517
G1 X132.062 Y139.121 E15.63006
G1 X130.274 Y138.742 E15.69085
G1 X128.355 Y137.723 E15.76312
G1 X127.23 Y136.493 E15.81856
G1 X125.526 Y136.107 E15.87667
G1 X124.173 Y135.856 E15.92244
G1 X122.778 Y135.435 E15.97091
G1 X121.698 Y134.932 E16.01053
G1 X121.102 Y134.442 E16.03619
G1 X120.975 Y134.38 E16.04089
G1 X120.622 Y134.178 E16.05442
G1 X120.363 Y134.133 E16.06317
G1 X119.483 Y134.007 E16.09273
G1 X118.432 Y133.915 E16.12782
G1 X117.555 Y133.888 E16.15701
G1 X116.35 Y133.937 E16.19712
G1 X115.891 Y133.971 E16.21243
G1 X115.579 Y134.008 E16.22288
G1 X114.397 Y134.187 E16.26264
G1 X113.856 Y134.559 E16.28447
G1 X113.539 Y134.664 E16.29558
G1 X113.451 Y134.723 E16.2991
G1 X111.844 Y135.642 E16.36068
G1 X111.419 Y135.813 E16.37591
G1 X109.969 Y136.018 E16.42462
G1 X109.232 Y136.152 E16.44953
G1 X107.504 Y136.547 E16.50849
G1 X106.302 Y137.673 E16.56327
G1 X104.622 Y138.671 E16.62826
G1 X103.82 Y138.893 E16.65594
G1 X102.398 Y139.095 E16.70371
G1 X98.102 Y139.134 E16.8466
G1 X96.349 Y138.724 E16.90648
G1 X94.486 Y137.762 E16.97622
G1 X93.227 Y136.4 E17.03791
G1 X92.182 Y134.657 E17.1055
G1 X91.841 Y132.91 E17.1647
G1 X91.322 Y132.135 E17.19573
G1 X90.686 Y130.999 E17.23903
G1 X90.312 Y129.693 E17.28421
G1 X89.924 Y127.637 E17.3538
G1 X90.002 Y125.374 E17.42911
G1 X90.553 Y123.542 E17.49274
G1 X91.017 Y122.439 E17.53254
G1 X92.211 Y120.736 E17.60172
G1 X93.323 Y119.786 E17.65036
G1 X93.324 Y117.519 E17.72577
G1 X92.465 Y116.75 E17.76411
G1 X91.376 Y115.526 E17.8186
G1 X90.53 Y113.663 E17.88666
G1 X90.127 Y112.233 E17.93607
G1 X89.985 Y111.158 E17.97214
G1 X90.02 Y108.791 E18.05087
G1 X90.251 Y107.389 E18.09813
G1 X90.839 Y105.912 E18.15101
G1 X91.508 Y104.63 E18.1991
G1 X91.986 Y104.107 E18.22267
G1 X92.202 Y103.218 E18.2531
G1 X93.151 Y101.432 E18.32036
G1 X95.07 Y99.571 E18.40927
G0 F6000 X95.326 Y99.879
G1 F1200 X96.131 Y99.21 E18.44409
G1 X97.511 Y98.486 E18.49592
G1 X98.669 Y98.15 E18.53602
G1 X98.986 Y97.954 E18.54842
G1 X101.135 Y97.332 E18.62283
G1 X102.733 Y97.432 E18.67608
G1 X104.288 Y97.098 E18.72898
G1 X106.701 Y96.602 E18.81092
G1 X108.903 Y96.067 E18.88629
G1 X112.057 Y96.123 E18.9912
G1 X113.251 Y96.282 E19.03127
G1 X114.283 Y96.522 E19.06651
G1 X115.108 Y96.948 E19.09739
G1 X119.868 Y96.943 E19.25571
G1 X121.245 Y96.316 E19.30603
G1 X122.305 Y96.164 E19.34165
G1 X122.597 Y96.155 E19.35137
G1 X122.93 Y96.079 E19.36273
G1 X124.207 Y96.08 E19.4052
G1 X124.851 Y95.956 E19.42701
G1 X126.528 Y96.173 E19.48325
G1 X128.777 Y96.723 E19.56026
G1 X131.616 Y97.279 E19.65648
G1 X132.718 Y97.507 E19.69391
G1 X133.097 Y97.564 E19.70666
G1 X134.119 Y97.659 E19.74079
G1 X135.25 Y98.047 E19.78056
G1 X135.984 Y98.047 E19.80498
G1 X137.703 Y98.597 E19.86501
G1 X138.604 Y99.011 E19.89799
G1 X140.249 Y100.378 E19.96912
G1 X140.484 Y100.638 E19.98078
G1 X140.808 Y100.855 E19.99375
G1 X142.013 Y102.471 E20.0608
G1 X142.683 Y104.312 E20.12596
G1 X143.239 Y104.91 E20.15312
G1 X144.228 Y107.142 E20.23431
G1 X144.443 Y107.954 E20.26225
G1 X144.629 Y109.352 E20.30916
G1 X144.573 Y111.657 E20.38585
G1 X144.413 Y112.508 E20.41465
G1 X143.823 Y114.201 E20.47428
G1 X143.179 Y115.437 E20.52063
G1 X141.797 Y116.973 E20.58935
G1 X141.276 Y117.355 E20.61084
G1 X141.277 Y119.99 E20.69848
G1 X142.353 Y120.814 E20.74356
G1 X143.762 Y122.795 E20.82441
G1 X144.54 Y125.011 E20.90253
G1 X144.702 Y127.274 E20.97799
G1 X144.486 Y128.727 E21.02685
G1 X144.222 Y130.008 E21.07035
G1 X143.502 Y131.727 E21.13234
G1 X142.8 Y132.693 E21.17205
G1 X142.782 Y132.961 E21.18099
G1 X142.42 Y134.451 E21.23199
G1 X141.504 Y136.213 E21.29804
G1 X140.171 Y137.429 E21.35805
G1 X138.551 Y138.393 E21.42075
G1 X136.686 Y138.735 E21.48381
G1 X132.103 Y138.721 E21.63624
G1 X130.413 Y138.363 E21.6937
G1 X128.603 Y137.402 E21.76186
G1 X127.441 Y136.131 E21.81914
G1 X125.614 Y135.717 E21.88144
G1 X124.289 Y135.473 E21.92626
G1 X122.894 Y135.052 E21.97472
G1 X121.913 Y134.591 E22.01077
G1 X121.319 Y134.102 E22.03636
G1 X121.174 Y134.033 E22.0417
G1 X120.76 Y133.796 E22.05757
G1 X120.427 Y133.738 E22.06881
G1 X119.536 Y133.611 E22.09875
G1 X118.445 Y133.515 E22.13517
G1 X117.552 Y133.487 E22.16489
G1 X116.334 Y133.537 E22.20543
G1 X115.861 Y133.572 E22.22121
G1 X115.532 Y133.611 E22.23223
G1 X114.246 Y133.806 E22.27549
G1 X113.676 Y134.197 E22.29848
G1 X113.358 Y134.302 E22.30962
G1 X113.252 Y134.376 E22.31392
G1 X111.695 Y135.271 E22.37365
G1 X111.315 Y135.424 E22.38727
G1 X109.897 Y135.624 E22.4349
G1 X109.16 Y135.758 E22.45982
G1 X107.528 Y136.131 E22.5155
G1 X107.346 Y136.146 E22.52157
G1 X106.058 Y137.353 E22.58028
G1 X104.466 Y138.299 E22.64187
G1 X103.713 Y138.507 E22.66786
G1 X102.394 Y138.695 E22.71217
G1 X98.144 Y138.734 E22.85353
G1 X96.49 Y138.347 E22.91003
G1 X94.734 Y137.44 E22.97577
G1 X93.548 Y136.157 E23.03388
G1 X92.562 Y134.512 E23.09767
G1 X92.219 Y132.755 E23.15721
G1 X91.671 Y131.939 E23.1899
G1 X91.058 Y130.845 E23.23161
G1 X90.697 Y129.583 E23.27527
G1 X90.325 Y127.608 E23.34211
G1 X90.4 Y125.438 E23.41433
G1 X90.922 Y123.697 E23.47478
G1 X91.369 Y122.635 E23.51311
G1 X92.511 Y121.006 E23.57927
G1 X93.723 Y119.971 E23.63228
G1 X93.724 Y117.34 E23.71979
G1 X92.732 Y116.452 E23.76407
G1 X91.716 Y115.307 E23.81499
G1 X90.915 Y113.553 E23.87912
G1 X90.524 Y112.181 E23.92657
G1 X90.382 Y111.106 E23.96264
G1 X90.415 Y108.856 E24.03748
G1 X90.639 Y107.497 E24.08329
G1 X91.211 Y106.06 E24.13473
G1 X91.837 Y104.863 E24.17966
G1 X92.351 Y104.3 E24.20502
G1 X92.58 Y103.36 E24.23719
G1 X93.475 Y101.674 E24.30068
G1 X95.326 Y99.879 E24.38644
G0 F6000 X95.582 Y100.187
G1 F1200 X96.357 Y99.543 E24.41996
G1 X97.661 Y98.859 E24.46893
G1 X98.832 Y98.519 E24.50949
G1 X99.149 Y98.323 E24.52188
G1 X101.179 Y97.735 E24.59218
G1 X102.764 Y97.835 E24.645
G1 X104.368 Y97.49 E24.69957
G1 X106.792 Y96.992 E24.78187
G1 X108.948 Y96.468 E24.85567
G1 X112.05 Y96.523 E24.95886
G1 X113.16 Y96.672 E24.99611
G1 X114.148 Y96.902 E25.02985
G1 X115.012 Y97.348 E25.06219
G1 X119.955 Y97.343 E25.22659
G1 X121.358 Y96.704 E25.27787
G1 X122.317 Y96.564 E25.3101
G1 X122.647 Y96.554 E25.32109
G1 X122.975 Y96.479 E25.33228
G1 X124.247 Y96.48 E25.37458
G1 X124.864 Y96.361 E25.39548
G1 X126.433 Y96.562 E25.44809
G1 X128.692 Y97.114 E25.52544
G1 X131.535 Y97.671 E25.6218
G1 X132.652 Y97.902 E25.65973
G1 X133.037 Y97.96 E25.67268
G1 X134.034 Y98.053 E25.70599
G1 X135.184 Y98.447 E25.74642
G1 X135.921 Y98.447 E25.77093
