;FLAVOR:Marlin
;TIME:3397
;Filament used: 1.50375m
;Layer height: 0.16
;MINX:76.218
;MINY:66.902
;MINZ:0.2
;MAXX:133.907
;MAXY:136.538
;MAXZ:7.28
;TARGET_MACHINE.NAME:Creality Ender-3
;Generated with Cura_SteamEngine 5.10.2
M140 S50
M105
M190 S50
M104 S200
M105
M109 S200
; Ender 3 Custom Start G-code
G92 E0 ; Reset Extruder
G28 ; Home all axes
G1 Z2.0 F3000 ; Move Z Axis up little to prevent scratching of Heat Bed
G1 X0.1 Y20 Z0.3 F5000.0 ; Move to start position
G1 X0.1 Y200.0 Z0.3 F1500.0 E15 ; Draw the first line
G1 X0.4 Y200.0 Z0.3 F5000.0 ; Move to side a little
G1 X0.4 Y20 Z0.3 F1500.0 E30 ; Draw the second line
G92 E0 ; Reset Extruder
G1 Z2.0 F3000 ; Move Z Axis up little to prevent scratching of Heat Bed
G1 X5 Y20 Z0.3 F5000.0 ; Move over to prevent blob squish
M82 ;absolute extrusion mode
G92 E0
G92 E0
G1 F2700 E-5
;LAYER_COUNT:44
;LAYER:0
M107
G0 F6000 X89.867 Y69.643 Z0.2
;TYPE:SKIRT
G1 F2700 E0
G1 F1200 X91.782 Y68.164 E0.08048
G1 X94.103 Y67.169 E0.16447
G1 X95.809 Y66.952 E0.22167
G1 X104.131 Y66.902 E0.49846
G1 X104.621 Y66.925 E0.51478
G1 X106.304 Y67.15 E0.57125
G1 X106.728 Y67.244 E0.5857
G1 X108.274 Y67.737 E0.63967
G1 X109.399 Y68.23 E0.68052
G1 X110.294 Y68.722 E0.71449
G1 X111.043 Y69.214 E0.7443
G1 X112.123 Y70.056 E0.78985
G1 X112.456 Y70.362 E0.80489
G1 X113.531 Y71.541 E0.85795
G1 X114.217 Y72.466 E0.89626
G1 X114.833 Y73.484 E0.93583
G1 X115.293 Y74.427 E0.97073
G1 X115.732 Y75.57 E1.01145
G1 X116.01 Y76.53 E1.04469
G1 X116.164 Y77.267 E1.06974
G1 X116.342 Y78.807 E1.1213
G1 X116.36 Y79.485 E1.14386
G1 X116.344 Y95.913 E1.69025
G1 X116.276 Y96.946 E1.72469
G1 X116.168 Y97.663 E1.7488
G1 X116.006 Y98.363 E1.7727
G1 X117.317 Y98.302 E1.81635
G1 X117.626 Y98.389 E1.82703
G1 X119.532 Y98.301 E1.89049
G1 X121.219 Y98.781 E1.94883
G1 X121.713 Y98.757 E1.96528
G1 X123.983 Y99.397 E2.04372
G1 X125.903 Y100.427 E2.11619
G1 X127.473 Y102.084 E2.19211
G1 X128.516 Y103.745 E2.25734
G1 X129.098 Y105.81 E2.3287
G1 X129.227 Y108.101 E2.40502
G1 X128.61 Y110.31 E2.48131
G1 X128.525 Y110.492 E2.48799
G1 X129.553 Y111.049 E2.52687
G1 X129.828 Y111.311 E2.53951
G1 X130.864 Y111.99 E2.58071
G1 X132.144 Y113.346 E2.64273
G1 X133.178 Y114.991 E2.70735
G1 X133.802 Y117.16 E2.78242
G1 X133.907 Y119.339 E2.85498
G1 X133.296 Y121.592 E2.93262
G1 X132.306 Y123.469 E3.0032
G1 X131.136 Y124.639 E3.05823
G1 X131.132 Y124.976 E3.06944
G1 X130.538 Y127.157 E3.14462
G1 X129.548 Y129.034 E3.2152
G1 X127.99 Y130.591 E3.28846
G1 X126.238 Y131.73 E3.35797
G1 X123.954 Y132.367 E3.43683
G1 X123.383 Y132.392 E3.45584
G1 X122.452 Y133.321 E3.49959
G1 X120.605 Y134.274 E3.56871
G1 X118.712 Y134.802 E3.63408
G1 X116.496 Y134.902 E3.70786
G1 X114.227 Y134.228 E3.78658
G1 X112.557 Y133.324 E3.84974
G1 X112.27 Y133.059 E3.86274
G1 X111.365 Y132.488 E3.89833
G1 X110.059 Y131.182 E3.95976
G1 X108.896 Y129.375 E4.03123
G1 X108.271 Y127.247 E4.105
G1 X108.252 Y126.813 E4.11945
G1 X106.267 Y126.243 E4.18814
G1 X105.337 Y125.742 E4.22327
G1 X105.229 Y126.503 E4.24884
G1 X105.018 Y127.363 E4.27829
G1 X104.64 Y128.501 E4.31817
G1 X104.185 Y129.539 E4.35587
G1 X103.769 Y130.305 E4.38486
G1 X103.07 Y131.368 E4.42717
G1 X102.327 Y132.313 E4.46716
G1 X102.007 Y132.659 E4.48283
G1 X100.882 Y133.685 E4.53347
G1 X99.891 Y134.419 E4.57449
G1 X98.937 Y134.994 E4.61154
G1 X97.817 Y135.542 E4.65301
G1 X97.095 Y135.824 E4.67879
G1 X95.915 Y136.175 E4.71974
G1 X95.096 Y136.346 E4.74756
G1 X93.587 Y136.52 E4.79809
G1 X92.909 Y136.538 E4.82064
G1 X84.884 Y136.533 E5.08756
G1 X82.417 Y136.04 E5.17123
G1 X79.933 Y134.606 E5.26663
G1 X78.167 Y132.835 E5.34981
G1 X76.705 Y130.378 E5.44491
G1 X76.224 Y127.843 E5.53073
G1 X76.23 Y124.494 E5.64211
G1 X76.238 Y124.421 E5.64456
G1 X76.219 Y124.152 E5.65353
G1 X76.231 Y107.491 E6.20767
G1 X76.241 Y107.398 E6.21078
G1 X76.218 Y107.021 E6.22335
G1 X76.319 Y103.677 E6.33462
G1 X76.668 Y101.648 E6.40309
G1 X78.118 Y99.148 E6.49922
G1 X79.92 Y97.3 E6.58507
G1 X82.462 Y95.842 E6.68254
G1 X84.883 Y95.37 E6.76457
G1 X87.087 Y95.372 E6.83788
G1 X87.099 Y79.019 E7.38178
G1 X87.107 Y78.946 E7.38423
G1 X87.087 Y78.657 E7.39386
G1 X87.098 Y75.25 E7.50718
G1 X87.721 Y73.105 E7.58147
G1 X88.347 Y71.618 E7.63513
G1 X89.867 Y69.643 E7.71802
G0 F6000 X90.151 Y69.93
G1 F1200 X91.987 Y68.512 E7.79518
G1 X94.21 Y67.559 E7.87562
G1 X95.86 Y67.349 E7.93095
G1 X104.112 Y67.302 E8.20541
G1 X104.602 Y67.325 E8.22173
G1 X106.217 Y67.541 E8.27592
G1 X106.641 Y67.635 E8.29037
G1 X108.152 Y68.118 E8.34313
G1 X109.206 Y68.581 E8.38142
G1 X110.101 Y69.073 E8.41539
G1 X110.823 Y69.548 E8.44413
G1 X111.852 Y70.351 E8.48754
G1 X112.185 Y70.657 E8.50259
G1 X113.235 Y71.81 E8.55445
G1 X113.875 Y72.674 E8.59022
G1 X114.473 Y73.659 E8.62854
G1 X114.933 Y74.602 E8.66344
G1 X115.348 Y75.682 E8.70192
G1 X115.618 Y76.612 E8.73413
G1 X115.772 Y77.349 E8.75917
G1 X115.942 Y78.818 E8.80836
G1 X115.96 Y79.485 E8.83055
G1 X115.945 Y95.887 E9.37608
G1 X115.88 Y96.886 E9.40938
G1 X115.772 Y97.603 E9.4335
G1 X115.497 Y98.787 E9.47392
G1 X117.272 Y98.705 E9.53302
G1 X117.58 Y98.792 E9.54367
G1 X119.486 Y98.704 E9.60713
G1 X121.174 Y99.184 E9.6655
G1 X121.669 Y99.16 E9.68198
G1 X123.834 Y99.77 E9.75679
G1 X125.657 Y100.748 E9.8256
G1 X127.153 Y102.327 E9.89795
G1 X128.147 Y103.911 E9.96015
G1 X128.701 Y105.877 E10.02808
G1 X128.824 Y108.057 E10.1007
G1 X128.225 Y110.202 E10.17478
G1 X127.988 Y110.656 E10.19181
G1 X129.318 Y111.377 E10.24213
G1 X129.581 Y111.628 E10.25422
G1 X130.605 Y112.299 E10.29494
G1 X131.826 Y113.592 E10.35409
G1 X132.81 Y115.158 E10.4156
G1 X133.404 Y117.223 E10.48707
G1 X133.504 Y119.297 E10.55613
G1 X132.922 Y121.443 E10.63009
G1 X131.98 Y123.229 E10.69725
G1 X130.727 Y124.481 E10.75616
G1 X130.746 Y124.871 E10.76915
G1 X130.164 Y127.008 E10.84281
G1 X129.222 Y128.794 E10.90997
G1 X127.735 Y130.28 E10.97989
G1 X126.072 Y131.361 E11.04586
G1 X123.893 Y131.969 E11.1211
G1 X123.21 Y131.999 E11.14384
G1 X122.211 Y132.996 E11.19078
G1 X120.459 Y133.9 E11.25636
G1 X118.652 Y134.404 E11.31875
G1 X116.543 Y134.499 E11.38897
G1 X114.382 Y133.857 E11.46395
G1 X112.791 Y132.996 E11.52412
G1 X112.516 Y132.742 E11.53657
G1 X111.619 Y132.176 E11.57185
G1 X110.37 Y130.927 E11.63059
G1 X109.265 Y129.21 E11.69851
G1 X108.669 Y127.181 E11.76884
G1 X108.64 Y126.509 E11.79121
G1 X106.418 Y125.87 E11.86811
G1 X105.02 Y125.118 E11.92091
G1 X104.84 Y126.408 E11.96423
G1 X104.638 Y127.237 E11.99261
G1 X104.273 Y128.341 E12.03129
G1 X103.833 Y129.348 E12.06784
G1 X103.417 Y130.114 E12.09683
G1 X102.755 Y131.121 E12.13691
G1 X102.032 Y132.042 E12.17585
G1 X101.737 Y132.363 E12.19035
G1 X100.612 Y133.389 E12.241
G1 X99.684 Y134.077 E12.27942
G1 X98.761 Y134.635 E12.31529
G1 X97.671 Y135.169 E12.35566
G1 X96.949 Y135.451 E12.38144
G1 X95.833 Y135.783 E12.42017
G1 X95.014 Y135.954 E12.448
G1 X93.576 Y136.12 E12.49614
G1 X92.909 Y136.138 E12.51833
G1 X84.922 Y136.133 E12.78398
G1 X82.56 Y135.661 E12.8641
G1 X80.181 Y134.287 E12.95547
G1 X78.486 Y132.588 E13.03529
G1 X77.084 Y130.233 E13.12645
G1 X76.624 Y127.806 E13.20861
G1 X76.628 Y124.538 E13.3173
G1 X76.64 Y124.43 E13.32092
G1 X76.619 Y124.152 E13.33019
G1 X76.629 Y107.533 E13.88294
G1 X76.642 Y107.409 E13.88709
G1 X76.618 Y107.033 E13.89962
G1 X76.719 Y103.689 E14.01089
G1 X77.05 Y101.787 E14.0751
G1 X78.44 Y99.39 E14.16726
G1 X80.166 Y97.62 E14.24949
G1 X82.603 Y96.222 E14.34293
G1 X84.923 Y95.77 E14.42155
G1 X87.487 Y95.772 E14.50683
G1 X87.497 Y79.063 E15.06257
G1 X87.509 Y78.955 E15.06619
G1 X87.487 Y78.658 E15.07609
G1 X87.498 Y75.307 E15.18755
G1 X88.09 Y73.26 E15.25842
G1 X88.696 Y71.82 E15.31038
G1 X90.151 Y69.93 E15.38971
G0 F6000 X90.435 Y70.217
G1 F1200 X92.192 Y68.86 E15.46355
G1 X94.317 Y67.949 E15.54045
G1 X95.911 Y67.746 E15.5939
G1 X104.093 Y67.702 E15.86604
G1 X104.583 Y67.725 E15.88235
G1 X106.13 Y67.932 E15.93426
G1 X106.554 Y68.026 E15.94871
G1 X107.991 Y68.484 E15.99887
G1 X109.013 Y68.932 E16.03599
G1 X109.908 Y69.424 E16.06995
G1 X110.577 Y69.863 E16.09657
G1 X111.581 Y70.646 E16.13892
G1 X111.914 Y70.952 E16.15396
G1 X112.914 Y72.049 E16.20333
G1 X113.533 Y72.882 E16.23785
G1 X114.113 Y73.834 E16.27492
G1 X114.573 Y74.777 E16.30982
G1 X114.964 Y75.794 E16.34606
G1 X115.226 Y76.694 E16.37724
G1 X115.38 Y77.431 E16.40228
G1 X115.542 Y78.829 E16.44909
G1 X115.56 Y79.485 E16.47091
G1 X115.546 Y95.861 E17.01558
G1 X115.484 Y96.826 E17.04775
G1 X115.376 Y97.543 E17.07186
G1 X115.122 Y98.648 E17.10957
G1 X114.908 Y99.29 E17.13208
G1 X115.226 Y99.2 E17.14307
G1 X117.226 Y99.108 E17.20966
G1 X117.577 Y99.208 E17.2218
G1 X117.716 Y99.187 E17.22648
G1 X119.44 Y99.107 E17.28388
G1 X121.129 Y99.587 E17.34228
G1 X121.624 Y99.563 E17.35876
G1 X123.682 Y100.143 E17.42988
G1 X125.413 Y101.071 E17.4952
G1 X126.833 Y102.57 E17.56388
G1 X127.778 Y104.076 E17.62301
G1 X128.305 Y105.946 E17.68763
G1 X128.421 Y108.013 E17.75649
G1 X127.852 Y110.052 E17.8269
G1 X127.451 Y110.82 E17.85572
G1 X129.083 Y111.705 E17.91746
G1 X129.343 Y111.953 E17.92941
G1 X129.436 Y112.006 E17.93297
G1 X130.347 Y112.608 E17.96929
G1 X131.508 Y113.838 E18.02555
G1 X132.442 Y115.325 E18.08395
G1 X133.006 Y117.286 E18.15182
G1 X133.101 Y119.255 E18.21739
G1 X132.548 Y121.294 E18.28765
G1 X131.654 Y122.989 E18.35139
G1 X130.319 Y124.323 E18.41416
G1 X130.343 Y124.828 E18.43098
G1 X129.79 Y126.859 E18.50099
G1 X128.896 Y128.554 E18.56472
G1 X127.48 Y129.969 E18.6313
G1 X125.905 Y130.993 E18.69379
G1 X123.833 Y131.571 E18.76533
G1 X123.037 Y131.606 E18.79183
G1 X121.97 Y132.671 E18.84198
G1 X120.313 Y133.526 E18.90399
G1 X118.592 Y134.006 E18.96342
G1 X116.59 Y134.096 E19.03007
G1 X114.537 Y133.486 E19.1013
G1 X113.025 Y132.668 E19.15848
G1 X112.762 Y132.425 E19.17039
G1 X111.873 Y131.864 E19.20535
G1 X110.681 Y130.672 E19.26142
G1 X109.634 Y129.045 E19.32577
G1 X109.067 Y127.115 E19.39268
G1 X109.023 Y126.089 E19.42683
G1 X108.682 Y126.105 E19.43819
G1 X106.57 Y125.498 E19.51128
G1 X105.04 Y124.675 E19.56906
G1 X104.785 Y124.441 E19.58057
G1 X104.687 Y124.385 E19.58433
G1 X104.672 Y124.717 E19.59538
G1 X104.444 Y126.353 E19.65032
G1 X104.258 Y127.111 E19.67628
G1 X103.893 Y128.215 E19.71495
G1 X103.481 Y129.157 E19.74915
G1 X103.065 Y129.923 E19.77814
G1 X102.421 Y130.901 E19.81709
G1 X101.737 Y131.771 E19.8539
G1 X101.442 Y132.092 E19.8684
G1 X100.343 Y133.093 E19.91784
G1 X99.477 Y133.735 E19.95369
G1 X98.585 Y134.276 E19.98839
G1 X97.525 Y134.796 E20.02766
G1 X96.803 Y135.078 E20.05344
G1 X95.751 Y135.391 E20.08995
G1 X94.932 Y135.562 E20.11778
G1 X93.565 Y135.72 E20.16355
G1 X92.909 Y135.738 E20.18537
G1 X84.96 Y135.733 E20.44976
G1 X82.703 Y135.282 E20.52631
G1 X80.426 Y133.967 E20.61376
G1 X78.807 Y132.344 E20.69001
G1 X77.464 Y130.088 E20.77734
G1 X77.024 Y127.768 E20.85587
G1 X77.026 Y124.582 E20.96184
G1 X77.042 Y124.437 E20.96669
G1 X77.019 Y124.152 E20.9762
G1 X77.027 Y107.576 E21.52752
G1 X77.044 Y107.418 E21.53281
G1 X77.018 Y107.045 E21.54524
G1 X77.119 Y103.701 E21.65652
G1 X77.432 Y101.926 E21.71647
G1 X78.762 Y99.632 E21.80466
G1 X80.412 Y97.94 E21.88326
G1 X82.743 Y96.603 E21.97264
G1 X84.964 Y96.17 E22.0479
G1 X87.892 Y96.172 E22.14529
G1 X87.91 Y95.968 E22.1521
G1 X87.887 Y95.683 E22.16161
G1 X87.895 Y79.107 E22.71293
G1 X87.911 Y78.962 E22.71778
G1 X87.887 Y78.659 E22.72789
G1 X87.898 Y75.363 E22.83752
G1 X88.459 Y73.415 E22.90494
G1 X89.045 Y72.022 E22.95521
G1 X90.435 Y70.217 E23.03098
G0 F6000 X90.719 Y70.504
G1 F1200 X92.397 Y69.208 E23.1015
G1 X94.424 Y68.339 E23.17485
G1 X95.962 Y68.143 E23.22642
G1 X104.074 Y68.102 E23.49623
G1 X104.564 Y68.125 E23.51254
G1 X106.043 Y68.323 E23.56217
G1 X106.467 Y68.417 E23.57662
G1 X107.831 Y68.851 E23.62423
G1 X108.82 Y69.283 E23.66012
G1 X109.715 Y69.775 E23.69409
G1 X110.357 Y70.197 E23.71964
G1 X111.31 Y70.941 E23.75986
G1 X111.643 Y71.247 E23.7749
G1 X112.618 Y72.318 E23.82307
G1 X113.191 Y73.09 E23.85505
G1 X113.771 Y74.042 E23.89212
G1 X114.2 Y74.921 E23.92466
G1 X114.58 Y75.906 E23.95977
G1 X114.834 Y76.776 E23.98991
G1 X114.988 Y77.513 E24.01496
G1 X115.142 Y78.84 E24.05939
G1 X115.16 Y79.485 E24.08085
G1 X115.147 Y95.836 E24.62469
G1 X115.088 Y96.767 E24.65571
G1 X114.986 Y97.453 E24.67878
G1 X114.732 Y98.558 E24.71649
G1 X114.289 Y99.88 E24.76286
G1 X115.289 Y99.598 E24.79742
G1 X117.179 Y99.511 E24.86035
G1 X117.553 Y99.618 E24.87329
G1 X117.735 Y99.587 E24.87943
G1 X119.394 Y99.51 E24.93467
G1 X121.084 Y99.99 E24.9931
G1 X121.579 Y99.966 E25.00958
G1 X123.53 Y100.516 E25.077
G1 X125.169 Y101.394 E25.13885
G1 X126.513 Y102.813 E25.20385
G1 X127.409 Y104.241 E25.25992
G1 X127.909 Y106.015 E25.32122
G1 X128.018 Y107.969 E25.38632
G1 X127.479 Y109.901 E25.45303
G1 X126.86 Y111.09 E25.49761
G1 X127.376 Y111.235 E25.51544
G1 X128.846 Y112.032 E25.57106
G1 X129.103 Y112.277 E25.58286
G1 X129.215 Y112.34 E25.58714
G1 X130.088 Y112.917 E25.62194
G1 X131.19 Y114.084 E25.67533
G1 X132.074 Y115.492 E25.73062
G1 X132.608 Y117.349 E25.79489
G1 X132.698 Y119.213 E25.85696
G1 X132.174 Y121.145 E25.92354
G1 X131.328 Y122.749 E25.98386
G1 X130.039 Y124.037 E26.04446
G1 X129.909 Y124.134 E26.04986
G1 X129.94 Y124.785 E26.07153
G1 X129.416 Y126.71 E26.13789
G1 X128.57 Y128.314 E26.1982
G1 X127.225 Y129.658 E26.26145
G1 X125.738 Y130.625 E26.32044
G1 X123.773 Y131.173 E26.38829
G1 X122.864 Y131.213 E26.41855
G1 X121.729 Y132.346 E26.47189
G1 X120.167 Y133.152 E26.53036
G1 X118.532 Y133.608 E26.58681
G1 X116.637 Y133.693 E26.6499
G1 X114.692 Y133.115 E26.71739
G1 X113.259 Y132.34 E26.77158
G1 X113.005 Y132.106 E26.78306
G1 X112.125 Y131.55 E26.81768
G1 X110.992 Y130.417 E26.87098
G1 X110.003 Y128.88 E26.93177
G1 X109.465 Y127.049 E26.99524
G1 X109.405 Y125.669 E27.04118
G1 X108.726 Y125.702 E27.06379
G1 X106.724 Y125.127 E27.13307
G1 X105.273 Y124.346 E27.18788
G1 X105.02 Y124.114 E27.1993
G1 X104.919 Y124.058 E27.20314
G1 X104.292 Y123.657 E27.22789
G1 X104.292 Y124.244 E27.24741
G1 X104.272 Y124.699 E27.26256
G1 X104.055 Y126.258 E27.31491
G1 X103.878 Y126.985 E27.3398
G1 X103.513 Y128.089 E27.37848
G1 X103.129 Y128.967 E27.41035
G1 X102.731 Y129.703 E27.43818
G1 X102.106 Y130.654 E27.47603
G1 X101.442 Y131.5 E27.5118
G1 X101.147 Y131.821 E27.5263
G1 X100.074 Y132.797 E27.57454
G1 X99.269 Y133.393 E27.60786
G1 X98.408 Y133.917 E27.64138
G1 X97.379 Y134.423 E27.67952
G1 X96.657 Y134.705 E27.7053
G1 X95.669 Y134.999 E27.73958
G1 X94.85 Y135.17 E27.76741
G1 X93.554 Y135.32 E27.8108
G1 X92.909 Y135.338 E27.83226
G1 X84.998 Y135.333 E28.09539
G1 X82.846 Y134.903 E28.16838
G1 X80.671 Y133.647 E28.25191
G1 X79.128 Y132.1 E28.32458
G1 X77.844 Y129.943 E28.40808
G1 X77.424 Y127.73 E28.48299
G1 X77.424 Y124.625 E28.58627
G1 X77.444 Y124.441 E28.59242
G1 X77.419 Y124.152 E28.60207
G1 X77.425 Y107.619 E29.15196
G1 X77.446 Y107.425 E29.15845
G1 X77.418 Y107.057 E29.17073
G1 X77.513 Y103.771 E29.28006
G1 X77.814 Y102.065 E29.33768
G1 X79.084 Y99.874 E29.42191
G1 X80.658 Y98.26 E29.4969
G1 X82.884 Y96.983 E29.58225
G1 X85.004 Y96.57 E29.65409
G1 X88.289 Y96.572 E29.76335
G1 X88.292 Y96.156 E29.77718
G1 X88.312 Y95.972 E29.78334
G1 X88.287 Y95.683 E29.79299
G1 X88.293 Y79.15 E30.34288
G1 X88.313 Y78.966 E30.34903
G1 X88.287 Y78.66 E30.35925
G1 X88.298 Y75.418 E30.46708
G1 X88.828 Y73.57 E30.53102
G1 X89.394 Y72.224 E30.57959
G1 X90.719 Y70.504 E30.6518
G0 F6000 X91.003 Y70.791
G1 F1200 X92.602 Y69.556 E30.719
G1 X94.531 Y68.729 E30.7888
G1 X96.013 Y68.54 E30.8385
G1 X104.055 Y68.502 E31.10598
G1 X104.545 Y68.525 E31.12229
G1 X105.956 Y68.714 E31.16964
G1 X106.38 Y68.808 E31.18409
G1 X107.709 Y69.232 E31.23048
G1 X108.627 Y69.634 E31.26382
G1 X109.522 Y70.126 E31.29778
G1 X110.111 Y70.513 E31.32122
G1 X111.039 Y71.236 E31.36035
G1 X111.372 Y71.542 E31.37539
G1 X112.322 Y72.587 E31.42237
G1 X112.85 Y73.299 E31.45185
G1 X113.412 Y74.218 E31.48768
G1 X113.827 Y75.065 E31.51905
G1 X114.196 Y76.018 E31.55304
G1 X114.442 Y76.858 E31.58215
G1 X114.596 Y77.595 E31.60719
G1 X114.742 Y78.851 E31.64925
G1 X114.76 Y79.485 E31.67034
G1 X114.748 Y95.811 E32.21335
G1 X114.692 Y96.709 E32.24327
G1 X114.596 Y97.363 E32.26526
G1 X114.342 Y98.468 E32.30297
G1 X113.976 Y99.561 E32.34131
