;FLAVOR:Marlin
;TIME:9334
;Filament used: 5.17523m
;Layer height: 0.2
;MINX:77.497
;MINY:90.898
;MINZ:0.2
;MAXX:146.72
;MAXY:144.101
;MAXZ:33
;TARGET_MACHINE.NAME:Creality Ender-3
;Generated with Cura_SteamEngine 5.10.2
M140 S50
M105
M190 S50
M104 S200
M105
M109 S200
; Ender 3 Custom Start G-code
G92 E0 ; Reset Extruder
G28 ; Home all axes
G1 Z2.0 F3000 ; Move Z Axis up little to prevent scratching of Heat Bed
G1 X0.1 Y20 Z0.3 F5000.0 ; Move to start position
G1 X0.1 Y200.0 Z0.3 F1500.0 E15 ; Draw the first line
G1 X0.4 Y200.0 Z0.3 F5000.0 ; Move to side a little
G1 X0.4 Y20 Z0.3 F1500.0 E30 ; Draw the second line
G92 E0 ; Reset Extruder
G1 Z2.0 F3000 ; Move Z Axis up little to prevent scratching of Heat Bed
G1 X5 Y20 Z0.3 F5000.0 ; Move over to prevent blob squish
M82 ;absolute extrusion mode
G92 E0
G92 E0
G1 F2700 E-5
;LAYER_COUNT:165
;LAYER:0
M107
G0 F6000 X80.929 Y97.926 Z0.2
;TYPE:SKIRT
G1 F2700 E0
G1 F1200 X86.461 Y93.158 E0.24291
G1 X87.929 Y92.223 E0.30079
G1 X89.685 Y91.452 E0.36458
G1 X91.115 Y91.028 E0.41419
G1 X93.061 Y90.898 E0.47906
G1 X130.972 Y90.949 E1.73998
G1 X132.416 Y91.158 E1.78851
G1 X133.958 Y91.619 E1.84204
G1 X135.766 Y92.433 E1.90799
G1 X137.112 Y93.44 E1.9639
G1 X143.475 Y98.998 E2.2449
G1 X144.126 Y99.712 E2.27704
G1 X145.308 Y101.458 E2.34717
G1 X146.106 Y103.123 E2.40858
G1 X146.582 Y105.272 E2.48179
G1 X146.72 Y107.087 E2.54233
G1 X146.703 Y107.531 E2.55711
G1 X146.704 Y128.534 E3.25567
G1 X146.569 Y130.226 E3.31212
G1 X145.827 Y132.513 E3.39209
G1 X145.402 Y133.388 E3.42445
G1 X144.029 Y135.391 E3.50522
G1 X143.261 Y136.21 E3.54256
G1 X136.673 Y141.898 E3.83205
G1 X135.663 Y142.567 E3.87234
G1 X133.677 Y143.533 E3.94579
G1 X131.49 Y144.003 E4.02019
G1 X130.178 Y144.101 E4.06395
G1 X92.32 Y144.063 E5.32312
G1 X90.918 Y143.924 E5.36998
G1 X88.799 Y143.193 E5.44453
G1 X87.403 Y142.474 E5.49676
G1 X85.919 Y141.422 E5.55726
G1 X81.095 Y137.224 E5.76995
G1 X79.746 Y135.716 E5.83725
G1 X78.695 Y134.13 E5.90053
G1 X78.073 Y132.532 E5.95756
G1 X77.581 Y130.339 E6.03232
G1 X77.497 Y129.103 E6.07352
G1 X77.553 Y104.972 E6.87612
G1 X77.77 Y103.542 E6.92423
G1 X78.199 Y102.095 E6.97443
G1 X79.04 Y100.226 E7.0426
G1 X80.298 Y98.584 E7.11139
G1 X80.929 Y97.926 E7.14172
G0 F6000 X81.218 Y98.203
G1 F1200 X86.722 Y93.461 E7.38335
G1 X88.09 Y92.589 E7.43731
G1 X89.799 Y91.836 E7.49942
G1 X91.189 Y91.424 E7.54764
G1 X93.061 Y91.298 E7.61005
G1 X130.916 Y91.345 E8.86911
G1 X132.302 Y91.542 E8.91567
G1 X133.794 Y91.984 E8.96743
G1 X135.562 Y92.78 E9.03192
G1 X136.872 Y93.76 E9.08633
G1 X143.179 Y99.268 E9.36484
G1 X143.83 Y99.982 E9.39697
G1 X144.947 Y101.631 E9.46322
G1 X145.725 Y103.254 E9.52308
G1 X146.191 Y105.358 E9.59476
G1 X146.32 Y107.072 E9.65192
G1 X146.303 Y107.516 E9.6667
G1 X146.305 Y128.502 E10.3647
G1 X146.174 Y130.147 E10.41959
G1 X145.467 Y132.338 E10.49616
G1 X145.042 Y133.213 E10.52851
G1 X143.737 Y135.117 E10.60529
G1 X142.969 Y135.936 E10.64263
G1 X136.412 Y141.595 E10.93071
G1 X135.488 Y142.207 E10.96757
G1 X133.545 Y143.152 E11.03943
G1 X131.46 Y143.604 E11.11039
G1 X130.178 Y143.701 E11.15315
G1 X92.36 Y143.665 E12.41098
G1 X91.003 Y143.53 E12.45634
G1 X88.982 Y142.837 E12.5274
G1 X87.586 Y142.118 E12.57963
G1 X86.182 Y141.12 E12.63692
G1 X81.358 Y136.922 E12.84962
G1 X80.045 Y135.45 E12.91522
G1 X79.053 Y133.946 E12.97515
G1 X78.446 Y132.387 E13.03079
G1 X77.98 Y130.312 E13.10152
G1 X77.897 Y129.104 E13.1418
G1 X77.953 Y104.973 E13.9444
G1 X78.154 Y103.655 E13.98874
G1 X78.564 Y102.259 E14.03713
G1 X79.386 Y100.433 E14.10374
G1 X80.587 Y98.861 E14.16954
G1 X81.218 Y98.203 E14.19986
G0 F6000 X81.507 Y98.48
G1 F1200 X86.983 Y93.764 E14.44022
G1 X88.252 Y92.955 E14.49028
G1 X89.913 Y92.22 E14.55069
G1 X91.263 Y91.82 E14.59752
G1 X93.061 Y91.698 E14.65746
G1 X130.861 Y91.741 E15.91469
G1 X132.188 Y91.926 E15.95926
G1 X133.68 Y92.368 E16.01101
G1 X135.356 Y93.126 E16.07219
G1 X136.632 Y94.08 E16.12518
G1 X142.883 Y99.538 E16.40119
G1 X143.534 Y100.252 E16.43333
G1 X144.586 Y101.804 E16.49569
G1 X145.344 Y103.385 E16.554
G1 X145.8 Y105.444 E16.62415
G1 X145.92 Y107.057 E16.67794
G1 X145.903 Y107.501 E16.69272
G1 X145.906 Y128.47 E17.39015
G1 X145.779 Y130.07 E17.44354
G1 X145.106 Y132.165 E17.51672
G1 X144.712 Y132.987 E17.54704
G1 X143.445 Y134.843 E17.62179
G1 X142.677 Y135.662 E17.65913
G1 X136.151 Y141.292 E17.94579
G1 X135.313 Y141.847 E17.97923
G1 X133.413 Y142.771 E18.0495
G1 X131.429 Y143.205 E18.11704
G1 X130.178 Y143.301 E18.15878
G1 X92.4 Y143.267 E19.41528
G1 X91.09 Y143.137 E19.45906
G1 X89.165 Y142.481 E19.5267
G1 X87.769 Y141.762 E19.57893
G1 X86.445 Y140.818 E19.63301
G1 X81.621 Y136.62 E19.84571
G1 X80.379 Y135.23 E19.90771
G1 X79.411 Y133.762 E19.96619
G1 X78.819 Y132.242 E20.02045
G1 X78.379 Y130.284 E20.08719
G1 X78.297 Y129.105 E20.1265
G1 X78.349 Y105.032 E20.92718
G1 X78.538 Y103.768 E20.96968
G1 X78.948 Y102.372 E21.01808
G1 X79.732 Y100.639 E21.08134
G1 X80.876 Y99.138 E21.14411
G1 X81.507 Y98.48 E21.17443
G0 F6000 X81.796 Y98.757
G1 F1200 X87.199 Y94.101 E21.41166
G1 X88.414 Y93.321 E21.45968
G1 X90.027 Y92.604 E21.51839
G1 X91.337 Y92.216 E21.56383
G1 X93.061 Y92.098 E21.6213
G1 X130.807 Y92.137 E22.87674
G1 X132.074 Y92.31 E22.91927
G1 X133.566 Y92.752 E22.97103
G1 X135.152 Y93.473 E23.02897
G1 X136.392 Y94.4 E23.08047
G1 X142.587 Y99.808 E23.35398
G1 X143.238 Y100.522 E23.38612
G1 X144.225 Y101.977 E23.44459
G1 X144.963 Y103.516 E23.50136
G1 X145.409 Y105.53 E23.56997
G1 X145.52 Y107.042 E23.6204
G1 X145.503 Y107.486 E23.63517
G1 X145.507 Y128.438 E24.33204
G1 X145.384 Y129.993 E24.38392
G1 X144.744 Y131.994 E24.4538
G1 X144.381 Y132.762 E24.48205
G1 X143.153 Y134.569 E24.55472
G1 X142.385 Y135.388 E24.59206
G1 X135.929 Y140.959 E24.87568
G1 X135.138 Y141.487 E24.90731
G1 X133.281 Y142.39 E24.97599
G1 X131.398 Y142.806 E25.04013
G1 X130.178 Y142.901 E25.08083
G1 X92.439 Y142.869 E26.33603
G1 X91.176 Y142.744 E26.37825
G1 X89.348 Y142.125 E26.44244
G1 X87.952 Y141.406 E26.49467
G1 X86.708 Y140.516 E26.54554
G1 X81.884 Y136.318 E26.75823
G1 X80.713 Y135.01 E26.81662
G1 X79.769 Y133.578 E26.87367
G1 X79.192 Y132.097 E26.92654
G1 X78.778 Y130.256 E26.9893
G1 X78.697 Y129.106 E27.02764
G1 X78.745 Y105.09 E27.82642
G1 X78.922 Y103.881 E27.86706
G1 X79.332 Y102.485 E27.91545
G1 X80.077 Y100.845 E27.97536
G1 X81.165 Y99.415 E28.03512
G1 X81.796 Y98.757 E28.06545
G0 F6000 X82.085 Y99.034
G1 F1200 X87.46 Y94.404 E28.3014
G1 X88.577 Y93.686 E28.34557
G1 X90.141 Y92.988 E28.40253
G1 X91.411 Y92.612 E28.44658
G1 X93.061 Y92.498 E28.50159
G1 X130.754 Y92.534 E29.75527
G1 X131.96 Y92.694 E29.79573
G1 X133.452 Y93.136 E29.84749
G1 X134.947 Y93.819 E29.90215
G1 X136.152 Y94.72 E29.9522
G1 X142.291 Y100.078 E30.22321
G1 X142.942 Y100.792 E30.25535
G1 X143.893 Y102.201 E30.31189
G1 X144.582 Y103.646 E30.36513
G1 X145.018 Y105.616 E30.43224
G1 X145.12 Y107.027 E30.47929
G1 X145.103 Y107.471 E30.49407
G1 X145.108 Y128.407 E31.19041
G1 X144.989 Y129.917 E31.24078
G1 X144.382 Y131.823 E31.30731
G1 X144.019 Y132.591 E31.33557
G1 X142.823 Y134.343 E31.40612
G1 X142.124 Y135.085 E31.44003
G1 X135.705 Y140.627 E31.72209
G1 X134.963 Y141.127 E31.75185
G1 X133.149 Y142.009 E31.81893
G1 X131.312 Y142.415 E31.88151
G1 X130.178 Y142.501 E31.91933
G1 X92.479 Y142.471 E33.17321
G1 X91.26 Y142.35 E33.21395
G1 X89.531 Y141.769 E33.27462
G1 X88.135 Y141.05 E33.32685
G1 X86.971 Y140.214 E33.37451
G1 X82.147 Y136.016 E33.5872
G1 X81.047 Y134.79 E33.64199
G1 X80.127 Y133.394 E33.6976
G1 X79.565 Y131.952 E33.74907
G1 X79.177 Y130.228 E33.80785
G1 X79.097 Y129.107 E33.84522
G1 X79.141 Y105.147 E34.64214
G1 X79.306 Y103.994 E34.68088
G1 X79.716 Y102.598 E34.72927
G1 X80.422 Y101.053 E34.78577
G1 X81.454 Y99.692 E34.84258
G1 X82.085 Y99.034 E34.8729
G0 F6000 X82.374 Y99.311
G1 F1200 X87.678 Y94.74 E35.10578
G1 X88.741 Y94.051 E35.14792
G1 X90.255 Y93.372 E35.2031
G1 X91.485 Y93.008 E35.24577
G1 X93.061 Y92.898 E35.29831
G1 X130.701 Y92.931 E36.55023
G1 X131.907 Y93.091 E36.59069
G1 X133.286 Y93.5 E36.63853
G1 X134.742 Y94.165 E36.69177
G1 X135.912 Y95.04 E36.74036
G1 X141.995 Y100.348 E37.00888
G1 X142.646 Y101.062 E37.04102
G1 X143.561 Y102.424 E37.09559
G1 X144.2 Y103.773 E37.14524
G1 X144.627 Y105.702 E37.21095
G1 X144.72 Y107.012 E37.25463
G1 X144.703 Y107.456 E37.26941
G1 X144.709 Y128.375 E37.96518
G1 X144.593 Y129.842 E38.01412
G1 X144.02 Y131.652 E38.07727
G1 X143.657 Y132.42 E38.10552
G1 X142.493 Y134.117 E38.17396
G1 X141.863 Y134.782 E38.20443
G1 X135.481 Y140.295 E38.48493
G1 X134.739 Y140.795 E38.51469
G1 X133.019 Y141.628 E38.57825
G1 X131.226 Y142.024 E38.63932
G1 X130.178 Y142.101 E38.67427
G1 X92.519 Y142.073 E39.92682
G1 X91.342 Y141.956 E39.96616
G1 X89.713 Y141.413 E40.02327
G1 X88.368 Y140.725 E40.07352
G1 X87.234 Y139.912 E40.11993
G1 X82.41 Y135.714 E40.33262
G1 X81.345 Y134.523 E40.38576
G1 X80.486 Y133.213 E40.43786
G1 X79.938 Y131.807 E40.48805
G1 X79.576 Y130.199 E40.54287
G1 X79.497 Y129.108 E40.57926
G1 X79.537 Y105.202 E41.37437
G1 X79.69 Y104.107 E41.41115
G1 X80.1 Y102.711 E41.45954
G1 X80.767 Y101.26 E41.51266
G1 X81.743 Y99.969 E41.56648
G1 X82.374 Y99.311 E41.59681
G0 F6000 X82.663 Y99.588
G1 F1200 X87.896 Y95.076 E41.82662
G1 X88.959 Y94.387 E41.86875
G1 X90.368 Y93.756 E41.9201
G1 X91.558 Y93.404 E41.96138
G1 X93.061 Y93.298 E42.01149
G1 X130.648 Y93.328 E43.26164
G1 X131.854 Y93.488 E43.3021
G1 X133.12 Y93.864 E43.34603
G1 X134.54 Y94.512 E43.39794
G1 X135.649 Y95.341 E43.44399
G1 X141.699 Y100.618 E43.71101
G1 X142.35 Y101.332 E43.74314
G1 X143.199 Y102.595 E43.79376
G1 X143.818 Y103.903 E43.84189
G1 X144.236 Y105.789 E43.90614
G1 X144.32 Y106.997 E43.94642
G1 X144.303 Y107.441 E43.96119
G1 X144.303 Y127.734 E44.63614
G1 X144.31 Y128.344 E44.65643
G1 X144.198 Y129.764 E44.70381
G1 X143.658 Y131.481 E44.76367
G1 X143.295 Y132.249 E44.79193
G1 X142.164 Y133.89 E44.85821
G1 X141.601 Y134.479 E44.88532
G1 X135.257 Y139.963 E45.16423
G1 X134.515 Y140.463 E45.19399
G1 X132.889 Y141.247 E45.25402
G1 X131.14 Y141.633 E45.3136
G1 X130.178 Y141.701 E45.34567
G1 X92.558 Y141.675 E46.59692
G1 X91.428 Y141.563 E46.63469
G1 X89.894 Y141.056 E46.68842
G1 X88.601 Y140.4 E46.73665
G1 X87.497 Y139.61 E46.7818
G1 X82.673 Y135.412 E46.99449
G1 X81.68 Y134.304 E47.04398
G1 X80.844 Y133.028 E47.09472
G1 X80.311 Y131.662 E47.14348
G1 X79.975 Y130.17 E47.19435
G1 X79.897 Y129.109 E47.22974
G1 X79.933 Y105.256 E48.02309
G1 X80.074 Y104.22 E48.05787
G1 X80.484 Y102.824 E48.10626
G1 X81.113 Y101.466 E48.15604
G1 X82.032 Y100.246 E48.20684
G1 X82.663 Y99.588 E48.23716
G0 F6000 X82.952 Y99.865
G1 F1200 X88.114 Y95.412 E48.4639
G1 X89.177 Y94.723 E48.50604
G1 X90.481 Y94.14 E48.55354
G1 X91.631 Y93.8 E48.59343
G1 X93.061 Y93.698 E48.64111
G1 X130.595 Y93.725 E49.8895
G1 X131.801 Y93.885 E49.92996
G1 X132.954 Y94.228 E49.96997
G1 X134.335 Y94.858 E50.02046
G1 X135.409 Y95.661 E50.06506
G1 X141.403 Y100.888 E50.32958
G1 X142.054 Y101.602 E50.36171
G1 X142.837 Y102.766 E50.40837
G1 X143.438 Y104.037 E50.45513
G1 X143.837 Y105.817 E50.51581
G1 X143.92 Y106.982 E50.55465
G1 X143.903 Y107.426 E50.56943
G1 X143.903 Y127.734 E51.24488
G1 X143.911 Y128.313 E51.26414
G1 X143.803 Y129.688 E51.31001
G1 X143.296 Y131.31 E51.36653
G1 X142.933 Y132.078 E51.39479
G1 X141.874 Y133.614 E51.45684
G1 X141.339 Y134.176 E51.48265
G1 X135.033 Y139.631 E51.75997
G1 X134.291 Y140.131 E51.78973
G1 X132.754 Y140.868 E51.84642
G1 X131.111 Y141.234 E51.90241
G1 X130.178 Y141.301 E51.93352
G1 X92.598 Y141.277 E53.18344
G1 X91.51 Y141.169 E53.2198
G1 X90.074 Y140.699 E53.27006
G1 X88.833 Y140.074 E53.31627
G1 X87.76 Y139.308 E53.36012
G1 X82.936 Y135.11 E53.57281
G1 X82.015 Y134.085 E53.61865
G1 X81.2 Y132.841 E53.66811
G1 X80.701 Y131.573 E53.71343
G1 X80.374 Y130.14 E53.76232
G1 X80.297 Y129.11 E53.79667
G1 X80.33 Y105.308 E54.58833
G1 X80.458 Y104.332 E54.62107
G1 X80.847 Y102.992 E54.66748
G1 X81.458 Y101.673 E54.71583
G1 X82.321 Y100.523 E54.76365
G1 X82.952 Y99.865 E54.79397
G0 F6000 X83.241 Y100.142
G1 F1200 X88.332 Y95.748 E55.01765
G1 X89.395 Y95.059 E55.05978
G1 X90.594 Y94.524 E55.10345
G1 X91.704 Y94.196 E55.14194
G1 X93.061 Y94.098 E55.1872
G1 X130.542 Y94.122 E56.43382
G1 X131.748 Y94.282 E56.47428
G1 X132.788 Y94.592 E56.51038
G1 X134.129 Y95.204 E56.5594
G1 X135.146 Y95.963 E56.60161
G1 X141.107 Y101.158 E56.8646
G1 X141.758 Y101.872 E56.89674
G1 X142.475 Y102.937 E56.93944
G1 X143.058 Y104.17 E56.9848
G1 X143.438 Y105.846 E57.04196
G1 X143.52 Y106.967 E57.07935
G1 X143.503 Y107.411 E57.09412
G1 X143.503 Y127.734 E57.77007
G1 X143.512 Y128.282 E57.7883
G1 X143.408 Y129.612 E57.83267
G1 X142.934 Y131.139 E57.88585
G1 X142.571 Y131.907 E57.9141
G1 X141.584 Y133.338 E57.97192
G1 X141.049 Y133.9 E57.99773
G1 X134.809 Y139.299 E58.27217
G1 X134.067 Y139.799 E58.30193
G1 X132.622 Y140.488 E58.35518
G1 X131.082 Y140.835 E58.40768
G1 X130.178 Y140.901 E58.43783
G1 X92.638 Y140.879 E59.68641
G1 X91.595 Y140.775 E59.72128
G1 X90.253 Y140.341 E59.76819
G1 X89.065 Y139.748 E59.81235
G1 X88.023 Y139.006 E59.8549
G1 X83.199 Y134.808 E60.06759
G1 X82.35 Y133.866 E60.10977
G1 X81.558 Y132.657 E60.15784
G1 X81.091 Y131.483 E60.19986
G1 X80.773 Y130.11 E60.24674
G1 X80.697 Y129.111 E60.28006
G1 X80.727 Y105.36 E61.07002
G1 X80.855 Y104.384 E61.10276
G1 X81.21 Y103.16 E61.14515
G1 X81.803 Y101.879 E61.1921
G1 X82.61 Y100.8 E61.23692
G1 X83.241 Y100.142 E61.26724
G0 F6000 X83.503 Y100.445
G1 F1200 X88.55 Y96.084 E61.48909
G1 X89.613 Y95.395 E61.53122
G1 X90.707 Y94.908 E61.57105
G1 X91.777 Y94.592 E61.60816
G1 X93.061 Y94.498 E61.65098
G1 X130.489 Y94.519 E62.89584
G1 X131.695 Y94.679 E62.9363
G1 X132.622 Y94.956 E62.96848
G1 X133.923 Y95.55 E63.01605
G1 X134.883 Y96.265 E63.05586
G1 X140.811 Y101.428 E63.31732
G1 X141.462 Y102.142 E63.34946
G1 X142.113 Y103.108 E63.38821
G1 X142.677 Y104.302 E63.43213
G1 X143.039 Y105.876 E63.48584
G1 X143.12 Y106.952 E63.52173
G1 X143.103 Y107.396 E63.53651
G1 X143.103 Y127.734 E64.21296
G1 X143.113 Y128.251 E64.23015
G1 X143.012 Y129.538 E64.27309
G1 X142.572 Y130.968 E64.32285
G1 X142.209 Y131.736 E64.35111
G1 X141.294 Y133.062 E64.40469
G1 X140.759 Y133.624 E64.4305
G1 X134.585 Y138.967 E64.70207
G1 X133.843 Y139.467 E64.73182
G1 X132.493 Y140.107 E64.78152
G1 X131.052 Y140.436 E64.83068
G1 X130.178 Y140.501 E64.85983
G1 X92.678 Y140.481 E66.10708
G1 X91.678 Y140.381 E66.14051
G1 X90.432 Y139.983 E66.18401
G1 X89.244 Y139.39 E66.22818
G1 X88.286 Y138.704 E66.26737
G1 X83.462 Y134.506 E66.48006
G1 X82.685 Y133.647 E66.51858
G1 X81.914 Y132.47 E66.56538
G1 X81.48 Y131.392 E66.60403
G1 X81.172 Y130.079 E66.64889
G1 X81.097 Y129.111 E66.68118
G1 X81.124 Y105.412 E67.46941
G1 X81.252 Y104.436 E67.50215
G1 X81.573 Y103.328 E67.54052
G1 X82.148 Y102.085 E67.58607
G1 X82.93 Y101.04 E67.62948
G1 X83.503 Y100.445 E67.65696
G0 F6000 X83.765 Y100.748
G1 F1200 X88.769 Y96.419 E67.87703
G1 X89.777 Y95.76 E67.91708
G1 X90.82 Y95.292 E67.95511
G1 X91.85 Y94.988 E67.99083
G1 X93.061 Y94.898 E68.03122
G1 X130.436 Y94.916 E69.27431
G1 X131.642 Y95.076 E69.31478
G1 X132.456 Y95.32 E69.34304
G1 X133.718 Y95.896 E69.38918
G1 X134.62 Y96.567 E69.42657
G1 X140.515 Y101.698 E69.68651
G1 X141.166 Y102.412 E69.71864
G1 X141.751 Y103.279 E69.75343
G1 X142.296 Y104.433 E69.79588
G1 X142.64 Y105.907 E69.84622
G1 X142.72 Y106.937 E69.88058
G1 X142.703 Y107.381 E69.89536
G1 X142.703 Y127.734 E70.5723
G1 X142.714 Y128.22 E70.58847
G1 X142.616 Y129.463 E70.62994
G1 X142.21 Y130.797 E70.67632
G1 X141.847 Y131.565 E70.70458
G1 X141.004 Y132.786 E70.75392
G1 X140.469 Y133.348 E70.77973
G1 X134.361 Y138.635 E71.04842
G1 X133.619 Y139.135 E71.07818
G1 X132.363 Y139.726 E71.12435
G1 X131.022 Y140.037 E71.17013
G1 X130.178 Y140.101 E71.19829
G1 X92.718 Y140.083 E72.44421
G1 X91.757 Y139.987 E72.47633
G1 X90.609 Y139.625 E72.51637
G1 X89.476 Y139.064 E72.55842
G1 X88.549 Y138.402 E72.59631
G1 X83.725 Y134.204 E72.809
G1 X83.02 Y133.428 E72.84387
G1 X82.269 Y132.281 E72.88947
G1 X81.869 Y131.299 E72.92474
G1 X81.571 Y130.048 E72.96751
G1 X81.497 Y129.111 E72.99877
G1 X81.521 Y105.464 E73.78527
